%
O1001
(T3 D=10. CR=0. - ZMIN=-18. - FLAT END MILL)
N10 G90 G94 G17 G49 G40 G80
N15 G21
N20 G28 G91 Z0.
N25 G90

(2D ADAPTIVE2)
N30 T3 M06
N35 S3000 M03
N40 G54
N45 G00 X-1.55 Y-10.35
N50 G43 Z15. H03
N55 G00 Z5.
N60 Z0.
N65 G01 Z-1. F400.
N70 Z-3.
N75 G03 X0. Y-5.073 I-9.526 J5.664
N80 G01 Y45.491 F800.
N85 Y94.477
N90 X0.054 Y94.772
N95 X0.266 Y95.335
N100 X1.006 Y96.283
N105 X1.968 Y97.003
N110 X3.039 Y97.55
N115 X4.167 Y97.965
N120 X5.327 Y98.28
N125 X6.505 Y98.52
N130 X7.693 Y98.702
N135 X8.887 Y98.841
N140 X10.085 Y98.946
N145 X11.284 Y99.025
N150 X12.485 Y99.086
N155 X13.686 Y99.132
N160 X14.887 Y99.167
N165 X16.089 Y99.193
N170 X17.291 Y99.214
N175 X18.493 Y99.229
N180 X19.695 Y99.241
N185 X20.897 Y99.249
N190 X22.099 Y99.256
N195 X23.301 Y99.261
N200 X25.706 Y99.268
N205 X29.312 Y99.273
N210 X34.12 Y99.276
N215 X48.546 Y99.277
N220 X50.95
N225 X90.018
N230 X90.318 Y99.252
N235 X90.898 Y99.094
N240 X91.884 Y98.406
N245 X92.633 Y97.466
N250 X93.202 Y96.407
N255 X93.634 Y95.286
N260 X93.963 Y94.129
N265 X94.212 Y92.953
N270 X94.402 Y91.766
N275 X94.545 Y90.573
N280 X94.655 Y89.376
N285 X94.738 Y88.176
N290 X94.801 Y86.976
N295 X94.849 Y85.775
N300 X94.885 Y84.573
N305 X94.913 Y83.371
N310 X94.934 Y82.169
N315 X94.95 Y80.967
N320 X94.962 Y79.765
N325 X94.971 Y78.563
N330 X94.978 Y77.361
N335 X94.983 Y76.159
N340 X94.99 Y73.755
N345 X94.994 Y71.351
N350 X94.998 Y66.542
N355 X95. Y55.723
N360 Y38.894
N365 Y4.934
N370 X94.951 Y4.638
N375 X94.75 Y4.072
N380 X94.052 Y3.093
N385 X93.107 Y2.349
N390 X92.046 Y1.784
N395 X90.923 Y1.355
N400 X89.766 Y1.03
N405 X88.59 Y0.782
N410 X87.402 Y0.594
N415 X86.209 Y0.451
N420 X85.012 Y0.343
N425 X83.812 Y0.26
N430 X82.612 Y0.198
N435 X81.411 Y0.15
N440 X80.209 Y0.114
N445 X79.007 Y0.087
N450 X77.805 Y0.066
N455 X76.603 Y0.05
N460 X75.401 Y0.038
N465 X74.199 Y0.029
N470 X72.997 Y0.022
N475 X71.795 Y0.017
N480 X69.391 Y0.01
N485 X66.987 Y0.006
N490 X62.178 Y0.002
N495 X51.359 Y0.
N500 X29.721
N505 X9.887
N510 X9.299 Y0.127
N515 X8.266 Y0.741
N520 X7.481 Y1.651
N525 X6.884 Y2.695
N530 X6.431 Y3.808
N535 X6.087 Y4.96
N540 X5.826 Y6.134
N545 X5.627 Y7.319
N550 X5.476 Y8.512
N555 X5.362 Y9.708
N560 X5.275 Y10.907
N565 X5.209 Y12.108
N570 X5.159 Y13.309
N575 X5.12 Y14.51
N580 X5.091 Y15.712
N585 X5.07 Y16.914
N590 X5.053 Y18.116
N595 X5.04 Y19.318
N600 X5.03 Y20.52
N605 X5.023 Y21.722
N610 X5.018 Y22.924
N615 X5.013 Y24.126
N620 X5.008 Y26.53
N625 X5.004 Y28.935
N630 X5.001 Y33.743
N635 X5. Y46.966
N640 Y79.423
N645 Y88.439
N650 X5.134 Y89.025
N655 X5.638 Y90.116
N660 X6.445 Y91.007
N665 X7.415 Y91.717
N670 X8.479 Y92.277
N675 X9.597 Y92.717
N680 X10.749 Y93.062
N685 X11.921 Y93.331
N690 X13.104 Y93.541
N695 X14.295 Y93.705
N700 X15.49 Y93.833
N705 X16.688 Y93.932
N710 X17.888 Y94.01
N715 X19.089 Y94.07
N720 X20.29 Y94.116
N725 X21.491 Y94.153
N730 X22.693 Y94.181
N735 X23.895 Y94.202
N740 X25.097 Y94.219
N745 X26.299 Y94.233
N750 X27.501 Y94.243
N755 X28.703 Y94.251
N760 X29.905 Y94.257
N765 X31.107 Y94.261
N770 X33.512 Y94.268
N775 X37.118 Y94.273
N780 X41.926 Y94.276
N785 X44.33
N790 X71.979 Y94.277
N795 X84.
N800 X84.594 Y94.185
N805 X85.71 Y93.738
N810 X86.625 Y92.959
N815 X87.357 Y92.005
N820 X87.935 Y90.951
N825 X88.389 Y89.838
N830 X88.744 Y88.689
N835 X89.022 Y87.52
N840 X89.24 Y86.338
N845 X89.409 Y85.148
N850 X89.541 Y83.953
N855 X89.643 Y82.755
N860 X89.723 Y81.556
N865 X89.785 Y80.355
N870 X89.834 Y79.154
N875 X89.871 Y77.952
N880 X89.9 Y76.751
N885 X89.923 Y75.549
N890 X89.94 Y74.347
N895 X89.954 Y73.145
N900 X89.964 Y71.943
N905 X89.972 Y70.741
N910 X89.979 Y69.538
N915 X89.983 Y68.336
N920 X89.99 Y65.932
N925 X89.995 Y62.326
N930 X89.998 Y57.517
N935 X90. Y44.294
N940 Y34.677
N945 Y10.635
N950 X89.818 Y10.062
N955 X89.247 Y9.005
N960 X88.406 Y8.146
N965 X87.417 Y7.463
N970 X86.342 Y6.924
N975 X85.217 Y6.501
N980 X84.061 Y6.169
N985 X82.888 Y5.91
N990 X81.703 Y5.708
N995 X80.511 Y5.55
N1000 X79.315 Y5.428
N1005 X78.117 Y5.332
N1010 X76.917 Y5.258
N1015 X75.716 Y5.2
N1020 X74.515 Y5.155
N1025 X73.313 Y5.12
N1030 X72.112 Y5.093
N1035 X70.91 Y5.072
N1040 X69.708 Y5.056
N1045 X68.506 Y5.043
N1050 X67.304 Y5.033
N1055 X66.102 Y5.026
N1060 X64.899 Y5.02
N1065 X63.697 Y5.015
N1070 X61.293 Y5.009
N1075 X57.687 Y5.004
N1080 X51.676 Y5.001
N1085 X32.443 Y5.
N1090 X15.613
N1095 X14.47 Y5.371
N1100 X13.521 Y6.11
N1105 X12.761 Y7.041
N1110 X12.159 Y8.081
N1115 X11.685 Y9.186
N1120 X11.314 Y10.329
N1125 X11.024 Y11.496
N1130 X10.797 Y12.676
N1135 X10.62 Y13.865
N1140 X10.482 Y15.06
N1145 X10.374 Y16.257
N1150 X10.29 Y17.456
N1155 X10.225 Y18.656
N1160 X10.175 Y19.857
N1165 X10.136 Y21.059
N1170 X10.105 Y22.261
N1175 X10.081 Y23.462
N1180 X10.063 Y24.664
N1185 X10.049 Y25.866
N1190 X10.038 Y27.068
N1195 X10.029 Y28.271
N1200 X10.023 Y29.473
N1205 X10.017 Y30.675
N1210 X10.01 Y33.079
N1215 X10.005 Y36.685
N1220 X10.002 Y41.494
N1225 X10. Y53.515
N1230 Y54.717
N1235 Y82.966
N1240 X10.114 Y83.556
N1245 X10.557 Y84.674
N1250 X11.311 Y85.61
N1255 X12.243 Y86.37
N1260 X13.279 Y86.979
N1265 X14.379 Y87.464
N1270 X15.518 Y87.849
N1275 X16.681 Y88.153
N1280 X17.858 Y88.394
N1285 X19.046 Y88.583
N1290 X20.238 Y88.732
N1295 X21.435 Y88.85
N1300 X22.633 Y88.942
N1305 X23.833 Y89.014
N1310 X25.034 Y89.071
N1315 X26.235 Y89.116
N1320 X27.437 Y89.151
N1325 X28.639 Y89.178
N1330 X29.841 Y89.2
N1335 X31.042 Y89.217
N1340 X32.245 Y89.23
N1345 X33.447 Y89.24
N1350 X34.649 Y89.249
N1355 X35.851 Y89.255
N1360 X37.053 Y89.26
N1365 X39.457 Y89.267
N1370 X43.063 Y89.272
N1375 X47.872 Y89.276
N1380 X59.893 Y89.277
N1385 X79.127
N1390 X80.26 Y88.878
N1395 X81.218 Y88.152
N1400 X81.999 Y87.238
N1405 X82.626 Y86.212
N1410 X83.126 Y85.119
N1415 X83.523 Y83.984
N1420 X83.837 Y82.824
N1425 X84.085 Y81.647
N1430 X84.281 Y80.461
N1435 X84.435 Y79.269
N1440 X84.557 Y78.073
N1445 X84.652 Y76.875
N1450 X84.727 Y75.675
N1455 X84.786 Y74.475
N1460 X84.832 Y73.273
N1465 X84.869 Y72.072
N1470 X84.897 Y70.87
N1475 X84.92 Y69.668
N1480 X84.937 Y68.466
N1485 X84.951 Y67.264
N1490 X84.962 Y66.062
N1495 X84.97 Y64.86
N1500 X84.977 Y63.658
N1505 X84.982 Y62.456
N1510 X84.989 Y60.052
N1515 X84.995 Y56.445
N1520 X84.998 Y51.637
N1525 X85. Y40.818
N1530 Y39.616
N1535 Y16.776
N1540 X84.984 Y16.175
N1545 X84.702 Y15.006
N1550 X84.043 Y14.001
N1555 X83.166 Y13.179
N1560 X82.163 Y12.516
N1565 X81.084 Y11.986
N1570 X79.958 Y11.566
N1575 X78.803 Y11.233
N1580 X77.63 Y10.971
N1585 X76.446 Y10.763
N1590 X75.255 Y10.6
N1595 X74.06 Y10.471
N1600 X72.862 Y10.37
N1605 X71.662 Y10.29
N1610 X70.462 Y10.227
N1615 X69.261 Y10.178
N1620 X68.059 Y10.14
N1625 X66.857 Y10.109
N1630 X65.656 Y10.085
N1635 X64.454 Y10.067
N1640 X63.252 Y10.052
N1645 X62.05 Y10.041
N1650 X60.847 Y10.032
N1655 X59.645 Y10.025
N1660 X58.443 Y10.019
N1665 X56.039 Y10.012
N1670 X53.635 Y10.007
N1675 X50.029 Y10.003
N1680 X42.816 Y10.001
N1685 X21.178 Y10.
N1690 X20.593 Y10.137
N1695 X19.492 Y10.62
N1700 X18.575 Y11.397
N1705 X17.832 Y12.342
N1710 X17.237 Y13.386
N1715 X16.764 Y14.491
N1720 X16.389 Y15.633
N1725 X16.093 Y16.799
N1730 X15.859 Y17.978
N1735 X15.675 Y19.166
N1740 X15.53 Y20.359
N1745 X15.416 Y21.556
N1750 X15.326 Y22.754
N1755 X15.256 Y23.954
N1760 X15.2 Y25.155
N1765 X15.157 Y26.357
N1770 X15.123 Y27.558
N1775 X15.096 Y28.76
N1780 X15.075 Y29.962
N1785 X15.059 Y31.164
N1790 X15.046 Y32.366
N1795 X15.036 Y33.568
N1800 X15.028 Y34.77
N1805 X15.022 Y35.972
N1810 X15.017 Y37.174
N1815 X15.01 Y39.579
N1820 X15.005 Y43.185
N1825 X15.002 Y47.993
N1830 X15. Y60.014
N1835 Y70.833
N1840 Y78.046
N1845 X15.327 Y79.203
N1850 X16. Y80.199
N1855 X16.878 Y81.02
N1860 X17.879 Y81.686
N1865 X18.956 Y82.219
N1870 X20.08 Y82.646
N1875 X21.233 Y82.985
N1880 X22.405 Y83.255
N1885 X23.588 Y83.469
N1890 X24.778 Y83.639
N1895 X25.972 Y83.773
N1900 X27.17 Y83.879
N1905 X28.369 Y83.963
N1910 X29.569 Y84.03
N1915 X30.77 Y84.082
N1920 X31.971 Y84.124
N1925 X33.173 Y84.156
N1930 X34.375 Y84.182
N1935 X35.577 Y84.202
N1940 X36.779 Y84.218
N1945 X37.981 Y84.231
N1950 X39.183 Y84.241
N1955 X40.385 Y84.249
N1960 X41.587 Y84.255
N1965 X42.789 Y84.26
N1970 X45.193 Y84.266
N1975 X48.8 Y84.272
N1980 X53.608 Y84.275
N1985 X56.012 Y84.276
N1990 X73.443 Y84.277
N1995 X74.036 Y84.181
N2000 X75.168 Y83.777
N2005 X76.128 Y83.053
N2010 X76.913 Y82.143
N2015 X77.547 Y81.121
N2020 X78.055 Y80.032
N2025 X78.46 Y78.9
N2030 X78.781 Y77.741
N2035 X79.036 Y76.567
N2040 X79.239 Y75.382
N2045 X79.399 Y74.19
N2050 X79.525 Y72.995
N2055 X79.626 Y71.797
N2060 X79.705 Y70.598
N2065 X79.767 Y69.397
N2070 X79.817 Y68.196
N2075 X79.855 Y66.995
N2080 X79.886 Y65.793
N2085 X79.91 Y64.591
N2090 X79.929 Y63.389
N2095 X79.945 Y62.187
N2100 X79.956 Y60.985
N2105 X79.966 Y59.783
N2110 X79.973 Y58.581
N2115 X79.979 Y57.379
N2120 X79.987 Y54.975
N2125 X79.99 Y53.772
N2130 X79.995 Y50.166
N2135 X79.998 Y45.358
N2140 X80. Y33.337
N2145 Y21.316
N2150 X79.708 Y20.149
N2155 X79.055 Y19.14
N2160 X78.189 Y18.307
N2165 X77.194 Y17.632
N2170 X76.121 Y17.089
N2175 X75. Y16.656
N2180 X73.848 Y16.311
N2185 X72.678 Y16.037
N2190 X71.496 Y15.82
N2195 X70.306 Y15.648
N2200 X69.111 Y15.512
N2205 X67.914 Y15.404
N2210 X66.715 Y15.319
N2215 X65.515 Y15.251
N2220 X64.314 Y15.198
N2225 X63.113 Y15.156
N2230 X61.911 Y15.123
N2235 X60.709 Y15.097
N2240 X59.507 Y15.076
N2245 X58.305 Y15.06
N2250 X57.103 Y15.047
N2255 X55.901 Y15.037
N2260 X54.699 Y15.029
N2265 X53.497 Y15.023
N2270 X52.295 Y15.018
N2275 X49.891 Y15.011
N2280 X46.284 Y15.005
N2285 X41.476 Y15.002
N2290 X30.657 Y15.
N2295 X27.051
N2300 X26.45 Y15.008
N2305 X25.272 Y15.249
N2310 X24.242 Y15.87
N2315 X23.39 Y16.718
N2320 X22.698 Y17.701
N2325 X22.143 Y18.767
N2330 X21.699 Y19.884
N2335 X21.345 Y21.033
N2340 X21.064 Y22.202
N2345 X20.841 Y23.383
N2350 X20.665 Y24.572
N2355 X20.525 Y25.766
N2360 X20.414 Y26.963
N2365 X20.327 Y28.162
N2370 X20.258 Y29.362
N2375 X20.203 Y30.563
N2380 X20.16 Y31.764
N2385 X20.126 Y32.966
N2390 X20.099 Y34.167
N2395 X20.078 Y35.369
N2400 X20.062 Y36.571
N2405 X20.048 Y37.773
N2410 X20.038 Y38.975
N2415 X20.03 Y40.178
N2420 X20.024 Y41.38
N2425 X20.018 Y42.582
N2430 X20.011 Y44.986
N2435 X20.006 Y48.592
N2440 X20.002 Y53.401
N2445 X20. Y64.22
N2450 Y72.634
N2455 X20.199 Y73.82
N2460 X20.787 Y74.868
N2465 X21.613 Y75.742
N2470 X22.581 Y76.454
N2475 X23.637 Y77.028
N2480 X24.748 Y77.489
N2485 X25.892 Y77.857
N2490 X27.058 Y78.15
N2495 X28.237 Y78.383
N2500 X29.425 Y78.569
N2505 X30.618 Y78.716
N2510 X31.814 Y78.833
N2515 X33.013 Y78.925
N2520 X34.213 Y78.999
N2525 X35.413 Y79.057
N2530 X36.615 Y79.103
N2535 X37.816 Y79.14
N2540 X39.018 Y79.168
N2545 X40.22 Y79.191
N2550 X41.422 Y79.209
N2555 X42.624 Y79.224
N2560 X43.826 Y79.235
N2565 X45.028 Y79.244
N2570 X46.23 Y79.251
N2575 X47.432 Y79.257
N2580 X49.836 Y79.264
N2585 X52.24 Y79.269
N2590 X55.847 Y79.273
N2595 X61.857 Y79.276
N2600 X67.868 Y79.277
N2605 X68.469 Y79.265
N2610 X69.646 Y79.023
N2615 X70.679 Y78.408
N2620 X71.537 Y77.566
N2625 X72.236 Y76.588
N2630 X72.799 Y75.525
N2635 X73.25 Y74.411
N2640 X73.61 Y73.264
N2645 X73.897 Y72.097
N2650 X74.125 Y70.917
N2655 X74.307 Y69.728
N2660 X74.451 Y68.535
N2665 X74.565 Y67.338
N2670 X74.656 Y66.14
N2675 X74.728 Y64.94
N2680 X74.784 Y63.739
N2685 X74.83 Y62.538
N2690 X74.865 Y61.336
N2695 X74.893 Y60.134
N2700 X74.916 Y58.932
N2705 X74.933 Y57.73
N2710 X74.947 Y56.528
N2715 X74.959 Y55.326
N2720 X74.967 Y54.124
N2725 X74.974 Y52.922
N2730 X74.98 Y51.72
N2735 X74.987 Y49.316
N2740 X74.992 Y46.912
N2745 X74.996 Y43.305
N2750 X74.999 Y37.295
N2755 X75. Y27.678
N2760 Y26.476
N2765 X74.738 Y25.303
N2770 X74.109 Y24.278
N2775 X73.26 Y23.427
N2780 X72.277 Y22.736
N2785 X71.211 Y22.178
N2790 X70.095 Y21.732
N2795 X68.947 Y21.375
N2800 X67.779 Y21.091
N2805 X66.599 Y20.865
N2810 X65.41 Y20.686
N2815 X64.216 Y20.543
N2820 X63.02 Y20.43
N2825 X61.821 Y20.341
N2830 X60.621 Y20.27
N2835 X59.42 Y20.213
N2840 X58.219 Y20.169
N2845 X57.017 Y20.133
N2850 X55.815 Y20.105
N2855 X54.614 Y20.083
N2860 X53.412 Y20.066
N2865 X52.21 Y20.052
N2870 X51.007 Y20.041
N2875 X49.805 Y20.032
N2880 X48.603 Y20.026
N2885 X47.401 Y20.02
N2890 X44.997 Y20.013
N2895 X42.593 Y20.008
N2900 X38.986 Y20.004
N2905 X31.774 Y20.001
N2910 X31.177 Y20.076
N2915 X30.031 Y20.437
N2920 X29.048 Y21.129
N2925 X28.239 Y22.018
N2930 X27.582 Y23.025
N2935 X27.054 Y24.105
N2940 X26.632 Y25.231
N2945 X26.296 Y26.385
N2950 X26.028 Y27.557
N2955 X25.815 Y28.74
N2960 X25.646 Y29.93
N2965 X25.512 Y31.124
N2970 X25.405 Y32.322
N2975 X25.321 Y33.521
N2980 X25.254 Y34.721
N2985 X25.201 Y35.922
N2990 X25.159 Y37.123
N2995 X25.125 Y38.325
N3000 X25.099 Y39.527
N3005 X25.078 Y40.729
N3010 X25.062 Y41.931
N3015 X25.049 Y43.133
N3020 X25.039 Y44.335
N3025 X25.03 Y45.537
N3030 X25.024 Y46.739
N3035 X25.019 Y47.941
N3040 X25.012 Y50.345
N3045 X25.006 Y53.952
N3050 X25.002 Y58.76
N3055 X25. Y67.175
N3060 X25.024 Y67.775
N3065 X25.291 Y68.948
N3070 X25.92 Y69.972
N3075 X26.769 Y70.823
N3080 X27.751 Y71.516
N3085 X28.815 Y72.076
N3090 X29.93 Y72.525
N3095 X31.077 Y72.884
N3100 X32.245 Y73.17
N3105 X33.425 Y73.397
N3110 X34.613 Y73.579
N3115 X35.807 Y73.723
N3120 X37.003 Y73.837
N3125 X38.202 Y73.928
N3130 X39.402 Y74.001
N3135 X40.603 Y74.058
N3140 X41.804 Y74.103
N3145 X43.006 Y74.14
N3150 X44.207 Y74.168
N3155 X45.409 Y74.191
N3160 X46.611 Y74.209
N3165 X47.813 Y74.223
N3170 X49.015 Y74.234
N3175 X50.217 Y74.243
N3180 X51.419 Y74.25
N3185 X52.622 Y74.256
N3190 X55.026 Y74.264
N3195 X57.43 Y74.269
N3200 X61.036 Y74.273
N3205 X63.44 Y74.275
N3210 X64.616 Y74.025
N3215 X65.648 Y73.407
N3220 X66.507 Y72.567
N3225 X67.207 Y71.589
N3230 X67.772 Y70.528
N3235 X68.226 Y69.415
N3240 X68.589 Y68.269
N3245 X68.878 Y67.102
N3250 X69.109 Y65.923
N3255 X69.292 Y64.735
N3260 X69.438 Y63.541
N3265 X69.554 Y62.345
N3270 X69.646 Y61.146
N3275 X69.72 Y59.947
N3280 X69.778 Y58.746
N3285 X69.824 Y57.545
N3290 X69.86 Y56.343
N3295 X69.889 Y55.141
N3300 X69.912 Y53.939
N3305 X69.931 Y52.737
N3310 X69.945 Y51.535
N3315 X69.956 Y50.333
N3320 X69.966 Y49.131
N3325 X69.973 Y47.929
N3330 X69.978 Y46.727
N3335 X69.986 Y44.323
N3340 X69.992 Y41.919
N3345 X69.996 Y38.312
N3350 X69.999 Y31.701
N3355 X69.805 Y30.514
N3360 X69.223 Y29.463
N3365 X68.403 Y28.584
N3370 X67.439 Y27.866
N3375 X66.385 Y27.287
N3380 X65.277 Y26.821
N3385 X64.134 Y26.449
N3390 X62.969 Y26.152
N3395 X61.791 Y25.915
N3400 X60.604 Y25.726
N3405 X59.411 Y25.577
N3410 X58.215 Y25.457
N3415 X57.016 Y25.363
N3420 X55.816 Y25.288
N3425 X54.616 Y25.228
N3430 X53.415 Y25.181
N3435 X52.213 Y25.143
N3440 X51.011 Y25.114
N3445 X49.81 Y25.09
N3450 X48.608 Y25.071
N3455 X47.406 Y25.056
N3460 X46.204 Y25.045
N3465 X45.001 Y25.035
N3470 X43.799 Y25.028
N3475 X42.597 Y25.022
N3480 X40.193 Y25.014
N3485 X37.789 Y25.009
N3490 X36.587 Y25.007
N3495 X35.409 Y25.248
N3500 X34.374 Y25.859
N3505 X33.512 Y26.697
N3510 X32.808 Y27.671
N3515 X32.24 Y28.731
N3520 X31.784 Y29.843
N3525 X31.42 Y30.989
N3530 X31.129 Y32.155
N3535 X30.897 Y33.335
N3540 X30.712 Y34.522
N3545 X30.565 Y35.716
N3550 X30.449 Y36.912
N3555 X30.356 Y38.111
N3560 X30.282 Y39.31
N3565 X30.224 Y40.511
N3570 X30.177 Y41.712
N3575 X30.141 Y42.914
N3580 X30.111 Y44.116
N3585 X30.093 Y45.05
N3590 X30.085 Y45.184
N3595 X30.066 Y45.318
N3600 X30.037 Y45.449
N3605 X29.977 Y45.672
N3610 X29.922 Y45.892
N3615 X29.787 Y46.492
N3620 X29.739 Y46.792
N3625 X29.677 Y47.391
N3630 X29.649 Y47.691
N3635 X29.519 Y49.189
N3640 X29.516 Y49.489
N3645 Y49.788
N3650 X29.519 Y50.088
N3655 X29.597 Y50.987
N3660 X29.642 Y52.188
N3665 X29.729 Y53.387
N3670 X29.794 Y54.588
N3675 X29.844 Y55.789
N3680 X29.882 Y56.99
N3685 X29.911 Y58.192
N3690 X29.932 Y59.394
N3695 X29.949 Y60.596
N3700 X29.961 Y61.798
N3705 X29.971 Y63.
N3710 X30.336 Y64.145
N3715 X31.022 Y65.133
N3720 X31.903 Y65.95
N3725 X32.904 Y66.615
N3730 X33.98 Y67.153
N3735 X35.102 Y67.584
N3740 X36.253 Y67.929
N3745 X37.423 Y68.204
N3750 X38.605 Y68.424
N3755 X39.795 Y68.599
N3760 X40.989 Y68.738
N3765 X42.186 Y68.849
N3770 X43.384 Y68.937
N3775 X44.585 Y69.007
N3780 X45.785 Y69.063
N3785 X46.987 Y69.107
N3790 X48.188 Y69.142
N3795 X49.39 Y69.17
N3800 X50.592 Y69.192
N3805 X51.794 Y69.21
N3810 X52.996 Y69.224
N3815 X54.198 Y69.235
N3820 X55.4 Y69.244
N3825 X56.602 Y69.251
N3830 X57.804 Y69.256
N3835 X58.405 Y69.243
N3840 X59.583 Y69.003
N3845 X60.618 Y68.391
N3850 X61.48 Y67.554
N3855 X62.184 Y66.579
N3860 X62.752 Y65.52
N3865 X63.209 Y64.408
N3870 X63.574 Y63.263
N3875 X63.866 Y62.096
N3880 X64.098 Y60.917
N3885 X64.283 Y59.729
N3890 X64.43 Y58.536
N3895 X64.547 Y57.34
N3900 X64.641 Y56.141
N3905 X64.715 Y54.941
N3910 X64.717 Y54.892
N3915 X64.727 Y54.775
N3920 X64.745 Y54.658
N3925 X64.772 Y54.543
N3930 X65.023 Y53.606
N3935 X65.078 Y53.385
N3940 X65.214 Y52.785
N3945 X65.261 Y52.485
N3950 X65.323 Y51.886
N3955 X65.351 Y51.586
N3960 X65.481 Y50.088
N3965 X65.484 Y49.788
N3970 Y49.489
N3975 X65.481 Y49.189
N3980 X65.403 Y48.29
N3985 X65.358 Y47.089
N3990 X65.27 Y45.89
N3995 X65.203 Y44.69
N4000 X65.153 Y43.488
N4005 X65.115 Y42.287
N4010 X65.087 Y41.085
N4015 X65.065 Y39.883
N4020 X65.049 Y38.681
N4025 X65.037 Y37.479
N4030 X65.028 Y36.277
N4035 X64.666 Y35.131
N4040 X63.982 Y34.143
N4045 X63.1 Y33.325
N4050 X62.099 Y32.66
N4055 X61.024 Y32.123
N4060 X59.901 Y31.692
N4065 X58.75 Y31.347
N4070 X57.579 Y31.072
N4075 X56.397 Y30.853
N4080 X55.208 Y30.678
N4085 X54.014 Y30.539
N4090 X52.817 Y30.428
N4095 X51.618 Y30.34
N4100 X50.418 Y30.27
N4105 X49.217 Y30.215
N4110 X48.016 Y30.17
N4115 X46.814 Y30.135
N4120 X45.613 Y30.107
N4125 X44.411 Y30.085
N4130 X43.209 Y30.068
N4135 X42.007 Y30.054
N4140 X41.407 Y30.095
N4145 X40.244 Y30.398
N4150 X39.234 Y31.05
N4155 X38.397 Y31.913
N4160 X37.716 Y32.904
N4165 X37.166 Y33.973
N4170 X36.794 Y34.917
N4175 X36.663 Y35.174
N4180 X36.485 Y35.402
N4185 X36.267 Y35.591
N4190 X35.668 Y36.109
N4195 X35.447 Y36.303
N4200 X34.171 Y37.579
N4205 X33.96 Y37.801
N4210 X33.871 Y37.895
N4215 X33.689 Y38.101
N4220 X33.249 Y38.7
N4225 X33.034 Y39.
N4230 X32.614 Y39.599
N4235 X32.373 Y39.948
N4240 X32. Y40.498
N4245 X31.837 Y40.798
N4250 X31.536 Y41.397
N4255 X31.475 Y41.526
N4260 X31.115 Y42.296
N4265 X30.7 Y43.195
N4270 X30.497 Y43.795
N4275 X30.4 Y44.094
N4280 X30.037 Y45.449
N4285 X30.036 Y45.452
N4290 G02 X29.772 Y46.059 Z-2.915 I6.818 J3.325
N4295 X29.709 Y46.338 Z-2.879 I0.934 J0.358
N4300 G01 X29.66 Y46.954 Z-2.8
N4305 X29.462 Y49.442
N4310 X29.413 Y50.057 Z-2.879
N4315 X29.41 Y50.144 Z-2.89
N4320 X29.414 Y50.23 Z-2.901
N4325 X29.432 Y50.343 Z-2.915 F400.
N4330 G02 X29.596 Y50.984 Z-3. I7.422 J-1.566
N4335 G01 X29.597 Y50.987
N4340 X29.649 Y51.586 F800.
N4345 X29.678 Y51.894
N4350 X29.739 Y52.485
N4355 X29.786 Y52.785
N4360 X29.922 Y53.385
N4365 X29.977 Y53.606
N4370 X30.4 Y55.183
N4375 X30.496 Y55.482
N4380 X30.7 Y56.082
N4385 X31.175 Y57.109
N4390 X31.475 Y57.752
N4395 X31.536 Y57.88
N4400 X31.837 Y58.479
N4405 X31.999 Y58.779
N4410 X32.407 Y59.378
N4415 X32.614 Y59.678
N4420 X33.033 Y60.277
N4425 X33.272 Y60.609
N4430 X33.689 Y61.176
N4435 X33.871 Y61.382
N4440 X33.959 Y61.476
N4445 X34.171 Y61.698
N4450 X35.447 Y62.974
N4455 X35.668 Y63.168
N4460 X36.267 Y63.686
N4465 X36.567 Y63.899
N4470 X37.814 Y64.772
N4475 X38.065 Y64.944
N4480 X38.785 Y65.372
N4485 X38.963 Y65.466
N4490 X40.461 Y66.165
N4495 X40.76 Y66.303
N4500 X41.06 Y66.44
N4505 X41.4 Y66.571
N4510 X41.659 Y66.649
N4515 X42.258 Y66.819
N4520 X42.558 Y66.9
N4525 X43.568 Y67.17
N4530 X44.055 Y67.299
N4535 X44.654 Y67.394
N4540 X44.954 Y67.437
N4545 X46.452 Y67.568
N4550 X46.751 Y67.592
N4555 X47.35 Y67.628
N4560 X47.65
N4565 X48.249 Y67.592
N4570 X48.548 Y67.568
N4575 X50.046 Y67.437
N4580 X50.346 Y67.394
N4585 X50.945 Y67.299
N4590 X51.843 Y67.061
N4595 X52.554 Y66.87
N4600 X52.742 Y66.819
N4605 X53.341 Y66.649
N4610 X53.6 Y66.571
N4615 X53.94 Y66.44
N4620 X54.311 Y66.271
N4625 X55.737 Y65.606
N4630 X56.037 Y65.466
N4635 X56.215 Y65.372
N4640 X56.935 Y64.944
N4645 X57.235 Y64.738
N4650 X58.47 Y63.873
N4655 X58.733 Y63.686
N4660 X59.332 Y63.168
N4665 X59.553 Y62.974
N4670 X60.829 Y61.698
N4675 X61.041 Y61.476
N4680 X61.129 Y61.382
N4685 X61.311 Y61.176
N4690 X61.751 Y60.577
N4695 X61.967 Y60.277
N4700 X62.386 Y59.678
N4705 X62.627 Y59.329
N4710 X63.001 Y58.779
N4715 X63.163 Y58.479
N4720 X63.464 Y57.88
N4725 X63.525 Y57.752
N4730 X63.885 Y56.981
N4735 X64.3 Y56.082
N4740 X64.504 Y55.482
N4745 X64.6 Y55.183
N4750 X64.772 Y54.543
N4755 X64.773 Y54.54
N4760 G02 X65.335 Y53.079 Z-2.8 I-8.158 J-3.979
N4765 G01 X65.34 Y53.063
N4770 X65.361 Y52.976
N4775 X65.374 Y52.887
N4780 X65.662 Y50.031
N4785 X65.667 Y49.942
N4790 X65.664 Y49.853
N4795 X65.663 Y49.836
N4800 G02 X65.565 Y49.052 Z-2.901 I-9.048 J0.724
N4805 X65.403 Y48.292 Z-3. I-8.95 J1.509 F400.
N4810 G01 Y48.29
N4815 X65.351 Y47.691 F800.
N4820 X65.322 Y47.383
N4825 X65.261 Y46.792
N4830 X65.213 Y46.492
N4835 X65.078 Y45.892
N4840 X65.023 Y45.672
N4845 X64.6 Y44.094
N4850 X64.503 Y43.795
N4855 X64.3 Y43.195
N4860 X63.825 Y42.168
N4865 X63.525 Y41.526
N4870 X63.464 Y41.397
N4875 X63.163 Y40.798
N4880 X63. Y40.498
N4885 X62.593 Y39.899
N4890 X62.386 Y39.599
N4895 X61.966 Y39.
N4900 X61.728 Y38.669
N4905 X61.311 Y38.101
N4910 X61.129 Y37.895
N4915 X61.04 Y37.801
N4920 X60.829 Y37.579
N4925 X59.553 Y36.303
N4930 X59.332 Y36.109
N4935 X58.733 Y35.591
N4940 X58.433 Y35.378
N4945 X57.185 Y34.505
N4950 X56.935 Y34.333
N4955 X56.214 Y33.905
N4960 X56.037 Y33.812
N4965 X54.539 Y33.113
N4970 X54.24 Y32.974
N4975 X53.94 Y32.837
N4980 X53.599 Y32.706
N4985 X53.341 Y32.629
N4990 X52.742 Y32.458
N4995 X52.442 Y32.377
N5000 X51.431 Y32.107
N5005 X50.945 Y31.978
N5010 X50.346 Y31.883
N5015 X50.046 Y31.84
N5020 X48.548 Y31.709
N5025 X48.249 Y31.686
N5030 X47.65 Y31.65
N5035 X47.35
N5040 X46.751 Y31.686
N5045 X46.452 Y31.709
N5050 X44.954 Y31.84
N5055 X44.654 Y31.883
N5060 X44.055 Y31.978
N5065 X43.157 Y32.217
N5070 X42.447 Y32.407
N5075 X42.258 Y32.458
N5080 X41.659 Y32.629
N5085 X41.401 Y32.706
N5090 X41.06 Y32.837
N5095 X40.69 Y33.006
N5100 X39.263 Y33.671
N5105 X38.963 Y33.812
N5110 X38.786 Y33.905
N5115 X38.065 Y34.333
N5120 X37.765 Y34.539
N5125 X36.487 Y35.435
N5130 X36.267 Y35.591
N5135 X36.181 Y35.632 Z-2.994
N5140 X36.096 Y35.673 Z-2.976
N5145 X36.013 Y35.712 Z-2.948
N5150 X35.937 Y35.724 Z-2.913
N5155 X35.865 Y35.736 Z-2.87
N5160 X35.797 Y35.747 Z-2.819
N5165 X35.736 Y35.757 Z-2.761
N5170 X35.716 Z-2.739
N5175 X35.657 Y35.751 Z-2.664
N5180 X35.607 Y35.746 Z-2.583
N5185 X35.568 Y35.742 Z-2.496
N5190 X35.539 Y35.74 Z-2.404
N5195 X35.522 Y35.738 Z-2.31
N5200 X35.516 Y35.737 Z-2.215
N5205 G00 Z5.
N5210 X-1.55 Y-10.35
N5215 Z-3.
N5220 G01 Z-4. F400.
N5225 Z-6.
N5230 G03 X0. Y-5.073 I-9.526 J5.664
N5235 G01 Y45.491 F800.
N5240 Y94.477
N5245 X0.054 Y94.772
N5250 X0.266 Y95.335
N5255 X1.006 Y96.283
N5260 X1.968 Y97.003
N5265 X3.039 Y97.55
N5270 X4.167 Y97.965
N5275 X5.327 Y98.28
N5280 X6.505 Y98.52
N5285 X7.693 Y98.702
N5290 X8.887 Y98.841
N5295 X10.085 Y98.946
N5300 X11.284 Y99.025
N5305 X12.485 Y99.086
N5310 X13.686 Y99.132
N5315 X14.887 Y99.167
N5320 X16.089 Y99.193
N5325 X17.291 Y99.214
N5330 X18.493 Y99.229
N5335 X19.695 Y99.241
N5340 X20.897 Y99.249
N5345 X22.099 Y99.256
N5350 X23.301 Y99.261
N5355 X25.706 Y99.268
N5360 X29.312 Y99.273
N5365 X34.12 Y99.276
N5370 X48.546 Y99.277
N5375 X50.95
N5380 X90.018
N5385 X90.318 Y99.252
N5390 X90.898 Y99.094
N5395 X91.884 Y98.406
N5400 X92.633 Y97.466
N5405 X93.202 Y96.407
N5410 X93.634 Y95.286
N5415 X93.963 Y94.129
N5420 X94.212 Y92.953
N5425 X94.402 Y91.766
N5430 X94.545 Y90.573
N5435 X94.655 Y89.376
N5440 X94.738 Y88.176
N5445 X94.801 Y86.976
N5450 X94.849 Y85.775
N5455 X94.885 Y84.573
N5460 X94.913 Y83.371
N5465 X94.934 Y82.169
N5470 X94.95 Y80.967
N5475 X94.962 Y79.765
N5480 X94.971 Y78.563
N5485 X94.978 Y77.361
N5490 X94.983 Y76.159
N5495 X94.99 Y73.755
N5500 X94.994 Y71.351
N5505 X94.998 Y66.542
N5510 X95. Y55.723
N5515 Y38.894
N5520 Y4.934
N5525 X94.951 Y4.638
N5530 X94.75 Y4.072
N5535 X94.052 Y3.093
N5540 X93.107 Y2.349
N5545 X92.046 Y1.784
N5550 X90.923 Y1.355
N5555 X89.766 Y1.03
N5560 X88.59 Y0.782
N5565 X87.402 Y0.594
N5570 X86.209 Y0.451
N5575 X85.012 Y0.343
N5580 X83.812 Y0.26
N5585 X82.612 Y0.198
N5590 X81.411 Y0.15
N5595 X80.209 Y0.114
N5600 X79.007 Y0.087
N5605 X77.805 Y0.066
N5610 X76.603 Y0.05
N5615 X75.401 Y0.038
N5620 X74.199 Y0.029
N5625 X72.997 Y0.022
N5630 X71.795 Y0.017
N5635 X69.391 Y0.01
N5640 X66.987 Y0.006
N5645 X62.178 Y0.002
N5650 X51.359 Y0.
N5655 X29.721
N5660 X9.887
N5665 X9.299 Y0.127
N5670 X8.266 Y0.741
N5675 X7.481 Y1.651
N5680 X6.884 Y2.695
N5685 X6.431 Y3.808
N5690 X6.087 Y4.96
N5695 X5.826 Y6.134
N5700 X5.627 Y7.319
N5705 X5.476 Y8.512
N5710 X5.362 Y9.708
N5715 X5.275 Y10.907
N5720 X5.209 Y12.108
N5725 X5.159 Y13.309
N5730 X5.12 Y14.51
N5735 X5.091 Y15.712
N5740 X5.07 Y16.914
N5745 X5.053 Y18.116
N5750 X5.04 Y19.318
N5755 X5.03 Y20.52
N5760 X5.023 Y21.722
N5765 X5.018 Y22.924
N5770 X5.013 Y24.126
N5775 X5.008 Y26.53
N5780 X5.004 Y28.935
N5785 X5.001 Y33.743
N5790 X5. Y46.966
N5795 Y79.423
N5800 Y88.439
N5805 X5.134 Y89.025
N5810 X5.638 Y90.116
N5815 X6.445 Y91.007
N5820 X7.415 Y91.717
N5825 X8.479 Y92.277
N5830 X9.597 Y92.717
N5835 X10.749 Y93.062
N5840 X11.921 Y93.331
N5845 X13.104 Y93.541
N5850 X14.295 Y93.705
N5855 X15.49 Y93.833
N5860 X16.688 Y93.932
N5865 X17.888 Y94.01
N5870 X19.089 Y94.07
N5875 X20.29 Y94.116
N5880 X21.491 Y94.153
N5885 X22.693 Y94.181
N5890 X23.895 Y94.202
N5895 X25.097 Y94.219
N5900 X26.299 Y94.233
N5905 X27.501 Y94.243
N5910 X28.703 Y94.251
N5915 X29.905 Y94.257
N5920 X31.107 Y94.261
N5925 X33.512 Y94.268
N5930 X37.118 Y94.273
N5935 X41.926 Y94.276
N5940 X44.33
N5945 X71.979 Y94.277
N5950 X84.
N5955 X84.594 Y94.185
N5960 X85.71 Y93.738
N5965 X86.625 Y92.959
N5970 X87.357 Y92.005
N5975 X87.935 Y90.951
N5980 X88.389 Y89.838
N5985 X88.744 Y88.689
N5990 X89.022 Y87.52
N5995 X89.24 Y86.338
N6000 X89.409 Y85.148
N6005 X89.541 Y83.953
N6010 X89.643 Y82.755
N6015 X89.723 Y81.556
N6020 X89.785 Y80.355
N6025 X89.834 Y79.154
N6030 X89.871 Y77.952
N6035 X89.9 Y76.751
N6040 X89.923 Y75.549
N6045 X89.94 Y74.347
N6050 X89.954 Y73.145
N6055 X89.964 Y71.943
N6060 X89.972 Y70.741
N6065 X89.979 Y69.538
N6070 X89.983 Y68.336
N6075 X89.99 Y65.932
N6080 X89.995 Y62.326
N6085 X89.998 Y57.517
N6090 X90. Y44.294
N6095 Y34.677
N6100 Y10.635
N6105 X89.818 Y10.062
N6110 X89.247 Y9.005
N6115 X88.406 Y8.146
N6120 X87.417 Y7.463
N6125 X86.342 Y6.924
N6130 X85.217 Y6.501
N6135 X84.061 Y6.169
N6140 X82.888 Y5.91
N6145 X81.703 Y5.708
N6150 X80.511 Y5.55
N6155 X79.315 Y5.428
N6160 X78.117 Y5.332
N6165 X76.917 Y5.258
N6170 X75.716 Y5.2
N6175 X74.515 Y5.155
N6180 X73.313 Y5.12
N6185 X72.112 Y5.093
N6190 X70.91 Y5.072
N6195 X69.708 Y5.056
N6200 X68.506 Y5.043
N6205 X67.304 Y5.033
N6210 X66.102 Y5.026
N6215 X64.899 Y5.02
N6220 X63.697 Y5.015
N6225 X61.293 Y5.009
N6230 X57.687 Y5.004
N6235 X51.676 Y5.001
N6240 X32.443 Y5.
N6245 X15.613
N6250 X14.47 Y5.371
N6255 X13.521 Y6.11
N6260 X12.761 Y7.041
N6265 X12.159 Y8.081
N6270 X11.685 Y9.186
N6275 X11.314 Y10.329
N6280 X11.024 Y11.496
N6285 X10.797 Y12.676
N6290 X10.62 Y13.865
N6295 X10.482 Y15.06
N6300 X10.374 Y16.257
N6305 X10.29 Y17.456
N6310 X10.225 Y18.656
N6315 X10.175 Y19.857
N6320 X10.136 Y21.059
N6325 X10.105 Y22.261
N6330 X10.081 Y23.462
N6335 X10.063 Y24.664
N6340 X10.049 Y25.866
N6345 X10.038 Y27.068
N6350 X10.029 Y28.271
N6355 X10.023 Y29.473
N6360 X10.017 Y30.675
N6365 X10.01 Y33.079
N6370 X10.005 Y36.685
N6375 X10.002 Y41.494
N6380 X10. Y53.515
N6385 Y54.717
N6390 Y82.966
N6395 X10.114 Y83.556
N6400 X10.557 Y84.674
N6405 X11.311 Y85.61
N6410 X12.243 Y86.37
N6415 X13.279 Y86.979
N6420 X14.379 Y87.464
N6425 X15.518 Y87.849
N6430 X16.681 Y88.153
N6435 X17.858 Y88.394
N6440 X19.046 Y88.583
N6445 X20.238 Y88.732
N6450 X21.435 Y88.85
N6455 X22.633 Y88.942
N6460 X23.833 Y89.014
N6465 X25.034 Y89.071
N6470 X26.235 Y89.116
N6475 X27.437 Y89.151
N6480 X28.639 Y89.178
N6485 X29.841 Y89.2
N6490 X31.042 Y89.217
N6495 X32.245 Y89.23
N6500 X33.447 Y89.24
N6505 X34.649 Y89.249
N6510 X35.851 Y89.255
N6515 X37.053 Y89.26
N6520 X39.457 Y89.267
N6525 X43.063 Y89.272
N6530 X47.872 Y89.276
N6535 X59.893 Y89.277
N6540 X79.127
N6545 X80.26 Y88.878
N6550 X81.218 Y88.152
N6555 X81.999 Y87.238
N6560 X82.626 Y86.212
N6565 X83.126 Y85.119
N6570 X83.523 Y83.984
N6575 X83.837 Y82.824
N6580 X84.085 Y81.647
N6585 X84.281 Y80.461
N6590 X84.435 Y79.269
N6595 X84.557 Y78.073
N6600 X84.652 Y76.875
N6605 X84.727 Y75.675
N6610 X84.786 Y74.475
N6615 X84.832 Y73.273
N6620 X84.869 Y72.072
N6625 X84.897 Y70.87
N6630 X84.92 Y69.668
N6635 X84.937 Y68.466
N6640 X84.951 Y67.264
N6645 X84.962 Y66.062
N6650 X84.97 Y64.86
N6655 X84.977 Y63.658
N6660 X84.982 Y62.456
N6665 X84.989 Y60.052
N6670 X84.995 Y56.445
N6675 X84.998 Y51.637
N6680 X85. Y40.818
N6685 Y39.616
N6690 Y16.776
N6695 X84.984 Y16.175
N6700 X84.702 Y15.006
N6705 X84.043 Y14.001
N6710 X83.166 Y13.179
N6715 X82.163 Y12.516
N6720 X81.084 Y11.986
N6725 X79.958 Y11.566
N6730 X78.803 Y11.233
N6735 X77.63 Y10.971
N6740 X76.446 Y10.763
N6745 X75.255 Y10.6
N6750 X74.06 Y10.471
N6755 X72.862 Y10.37
N6760 X71.662 Y10.29
N6765 X70.462 Y10.227
N6770 X69.261 Y10.178
N6775 X68.059 Y10.14
N6780 X66.857 Y10.109
N6785 X65.656 Y10.085
N6790 X64.454 Y10.067
N6795 X63.252 Y10.052
N6800 X62.05 Y10.041
N6805 X60.847 Y10.032
N6810 X59.645 Y10.025
N6815 X58.443 Y10.019
N6820 X56.039 Y10.012
N6825 X53.635 Y10.007
N6830 X50.029 Y10.003
N6835 X42.816 Y10.001
N6840 X21.178 Y10.
N6845 X20.593 Y10.137
N6850 X19.492 Y10.62
N6855 X18.575 Y11.397
N6860 X17.832 Y12.342
N6865 X17.237 Y13.386
N6870 X16.764 Y14.491
N6875 X16.389 Y15.633
N6880 X16.093 Y16.799
N6885 X15.859 Y17.978
N6890 X15.675 Y19.166
N6895 X15.53 Y20.359
N6900 X15.416 Y21.556
N6905 X15.326 Y22.754
N6910 X15.256 Y23.954
N6915 X15.2 Y25.155
N6920 X15.157 Y26.357
N6925 X15.123 Y27.558
N6930 X15.096 Y28.76
N6935 X15.075 Y29.962
N6940 X15.059 Y31.164
N6945 X15.046 Y32.366
N6950 X15.036 Y33.568
N6955 X15.028 Y34.77
N6960 X15.022 Y35.972
N6965 X15.017 Y37.174
N6970 X15.01 Y39.579
N6975 X15.005 Y43.185
N6980 X15.002 Y47.993
N6985 X15. Y60.014
N6990 Y70.833
N6995 Y78.046
N7000 X15.327 Y79.203
N7005 X16. Y80.199
N7010 X16.878 Y81.02
N7015 X17.879 Y81.686
N7020 X18.956 Y82.219
N7025 X20.08 Y82.646
N7030 X21.233 Y82.985
N7035 X22.405 Y83.255
N7040 X23.588 Y83.469
N7045 X24.778 Y83.639
N7050 X25.972 Y83.773
N7055 X27.17 Y83.879
N7060 X28.369 Y83.963
N7065 X29.569 Y84.03
N7070 X30.77 Y84.082
N7075 X31.971 Y84.124
N7080 X33.173 Y84.156
N7085 X34.375 Y84.182
N7090 X35.577 Y84.202
N7095 X36.779 Y84.218
N7100 X37.981 Y84.231
N7105 X39.183 Y84.241
N7110 X40.385 Y84.249
N7115 X41.587 Y84.255
N7120 X42.789 Y84.26
N7125 X45.193 Y84.266
N7130 X48.8 Y84.272
N7135 X53.608 Y84.275
N7140 X56.012 Y84.276
N7145 X73.443 Y84.277
N7150 X74.036 Y84.181
N7155 X75.168 Y83.777
N7160 X76.128 Y83.053
N7165 X76.913 Y82.143
N7170 X77.547 Y81.121
N7175 X78.055 Y80.032
N7180 X78.46 Y78.9
N7185 X78.781 Y77.741
N7190 X79.036 Y76.567
N7195 X79.239 Y75.382
N7200 X79.399 Y74.19
N7205 X79.525 Y72.995
N7210 X79.626 Y71.797
N7215 X79.705 Y70.598
N7220 X79.767 Y69.397
N7225 X79.817 Y68.196
N7230 X79.855 Y66.995
N7235 X79.886 Y65.793
N7240 X79.91 Y64.591
N7245 X79.929 Y63.389
N7250 X79.945 Y62.187
N7255 X79.956 Y60.985
N7260 X79.966 Y59.783
N7265 X79.973 Y58.581
N7270 X79.979 Y57.379
N7275 X79.987 Y54.975
N7280 X79.99 Y53.772
N7285 X79.995 Y50.166
N7290 X79.998 Y45.358
N7295 X80. Y33.337
N7300 Y21.316
N7305 X79.708 Y20.149
N7310 X79.055 Y19.14
N7315 X78.189 Y18.307
N7320 X77.194 Y17.632
N7325 X76.121 Y17.089
N7330 X75. Y16.656
N7335 X73.848 Y16.311
N7340 X72.678 Y16.037
N7345 X71.496 Y15.82
N7350 X70.306 Y15.648
N7355 X69.111 Y15.512
N7360 X67.914 Y15.404
N7365 X66.715 Y15.319
N7370 X65.515 Y15.251
N7375 X64.314 Y15.198
N7380 X63.113 Y15.156
N7385 X61.911 Y15.123
N7390 X60.709 Y15.097
N7395 X59.507 Y15.076
N7400 X58.305 Y15.06
N7405 X57.103 Y15.047
N7410 X55.901 Y15.037
N7415 X54.699 Y15.029
N7420 X53.497 Y15.023
N7425 X52.295 Y15.018
N7430 X49.891 Y15.011
N7435 X46.284 Y15.005
N7440 X41.476 Y15.002
N7445 X30.657 Y15.
N7450 X27.051
N7455 X26.45 Y15.008
N7460 X25.272 Y15.249
N7465 X24.242 Y15.87
N7470 X23.39 Y16.718
N7475 X22.698 Y17.701
N7480 X22.143 Y18.767
N7485 X21.699 Y19.884
N7490 X21.345 Y21.033
N7495 X21.064 Y22.202
N7500 X20.841 Y23.383
N7505 X20.665 Y24.572
N7510 X20.525 Y25.766
N7515 X20.414 Y26.963
N7520 X20.327 Y28.162
N7525 X20.258 Y29.362
N7530 X20.203 Y30.563
N7535 X20.16 Y31.764
N7540 X20.126 Y32.966
N7545 X20.099 Y34.167
N7550 X20.078 Y35.369
N7555 X20.062 Y36.571
N7560 X20.048 Y37.773
N7565 X20.038 Y38.975
N7570 X20.03 Y40.178
N7575 X20.024 Y41.38
N7580 X20.018 Y42.582
N7585 X20.011 Y44.986
N7590 X20.006 Y48.592
N7595 X20.002 Y53.401
N7600 X20. Y64.22
N7605 Y72.634
N7610 X20.199 Y73.82
N7615 X20.787 Y74.868
N7620 X21.613 Y75.742
N7625 X22.581 Y76.454
N7630 X23.637 Y77.028
N7635 X24.748 Y77.489
N7640 X25.892 Y77.857
N7645 X27.058 Y78.15
N7650 X28.237 Y78.383
N7655 X29.425 Y78.569
N7660 X30.618 Y78.716
N7665 X31.814 Y78.833
N7670 X33.013 Y78.925
N7675 X34.213 Y78.999
N7680 X35.413 Y79.057
N7685 X36.615 Y79.103
N7690 X37.816 Y79.14
N7695 X39.018 Y79.168
N7700 X40.22 Y79.191
N7705 X41.422 Y79.209
N7710 X42.624 Y79.224
N7715 X43.826 Y79.235
N7720 X45.028 Y79.244
N7725 X46.23 Y79.251
N7730 X47.432 Y79.257
N7735 X49.836 Y79.264
N7740 X52.24 Y79.269
N7745 X55.847 Y79.273
N7750 X61.857 Y79.276
N7755 X67.868 Y79.277
N7760 X68.469 Y79.265
N7765 X69.646 Y79.023
N7770 X70.679 Y78.408
N7775 X71.537 Y77.566
N7780 X72.236 Y76.588
N7785 X72.799 Y75.525
N7790 X73.25 Y74.411
N7795 X73.61 Y73.264
N7800 X73.897 Y72.097
N7805 X74.125 Y70.917
N7810 X74.307 Y69.728
N7815 X74.451 Y68.535
N7820 X74.565 Y67.338
N7825 X74.656 Y66.14
N7830 X74.728 Y64.94
N7835 X74.784 Y63.739
N7840 X74.83 Y62.538
N7845 X74.865 Y61.336
N7850 X74.893 Y60.134
N7855 X74.916 Y58.932
N7860 X74.933 Y57.73
N7865 X74.947 Y56.528
N7870 X74.959 Y55.326
N7875 X74.967 Y54.124
N7880 X74.974 Y52.922
N7885 X74.98 Y51.72
N7890 X74.987 Y49.316
N7895 X74.992 Y46.912
N7900 X74.996 Y43.305
N7905 X74.999 Y37.295
N7910 X75. Y27.678
N7915 Y26.476
N7920 X74.738 Y25.303
N7925 X74.109 Y24.278
N7930 X73.26 Y23.427
N7935 X72.277 Y22.736
N7940 X71.211 Y22.178
N7945 X70.095 Y21.732
N7950 X68.947 Y21.375
N7955 X67.779 Y21.091
N7960 X66.599 Y20.865
N7965 X65.41 Y20.686
N7970 X64.216 Y20.543
N7975 X63.02 Y20.43
N7980 X61.821 Y20.341
N7985 X60.621 Y20.27
N7990 X59.42 Y20.213
N7995 X58.219 Y20.169
N8000 X57.017 Y20.133
N8005 X55.815 Y20.105
N8010 X54.614 Y20.083
N8015 X53.412 Y20.066
N8020 X52.21 Y20.052
N8025 X51.007 Y20.041
N8030 X49.805 Y20.032
N8035 X48.603 Y20.026
N8040 X47.401 Y20.02
N8045 X44.997 Y20.013
N8050 X42.593 Y20.008
N8055 X38.986 Y20.004
N8060 X31.774 Y20.001
N8065 X31.177 Y20.076
N8070 X30.031 Y20.437
N8075 X29.048 Y21.129
N8080 X28.239 Y22.018
N8085 X27.582 Y23.025
N8090 X27.054 Y24.105
N8095 X26.632 Y25.231
N8100 X26.296 Y26.385
N8105 X26.028 Y27.557
N8110 X25.815 Y28.74
N8115 X25.646 Y29.93
N8120 X25.512 Y31.124
N8125 X25.405 Y32.322
N8130 X25.321 Y33.521
N8135 X25.254 Y34.721
N8140 X25.201 Y35.922
N8145 X25.159 Y37.123
N8150 X25.125 Y38.325
N8155 X25.099 Y39.527
N8160 X25.078 Y40.729
N8165 X25.062 Y41.931
N8170 X25.049 Y43.133
N8175 X25.039 Y44.335
N8180 X25.03 Y45.537
N8185 X25.024 Y46.739
N8190 X25.019 Y47.941
N8195 X25.012 Y50.345
N8200 X25.006 Y53.952
N8205 X25.002 Y58.76
N8210 X25. Y67.175
N8215 X25.024 Y67.775
N8220 X25.291 Y68.948
N8225 X25.92 Y69.972
N8230 X26.769 Y70.823
N8235 X27.751 Y71.516
N8240 X28.815 Y72.076
N8245 X29.93 Y72.525
N8250 X31.077 Y72.884
N8255 X32.245 Y73.17
N8260 X33.425 Y73.397
N8265 X34.613 Y73.579
N8270 X35.807 Y73.723
N8275 X37.003 Y73.837
N8280 X38.202 Y73.928
N8285 X39.402 Y74.001
N8290 X40.603 Y74.058
N8295 X41.804 Y74.103
N8300 X43.006 Y74.14
N8305 X44.207 Y74.168
N8310 X45.409 Y74.191
N8315 X46.611 Y74.209
N8320 X47.813 Y74.223
N8325 X49.015 Y74.234
N8330 X50.217 Y74.243
N8335 X51.419 Y74.25
N8340 X52.622 Y74.256
N8345 X55.026 Y74.264
N8350 X57.43 Y74.269
N8355 X61.036 Y74.273
N8360 X63.44 Y74.275
N8365 X64.616 Y74.025
N8370 X65.648 Y73.407
N8375 X66.507 Y72.567
N8380 X67.207 Y71.589
N8385 X67.772 Y70.528
N8390 X68.226 Y69.415
N8395 X68.589 Y68.269
N8400 X68.878 Y67.102
N8405 X69.109 Y65.923
N8410 X69.292 Y64.735
N8415 X69.438 Y63.541
N8420 X69.554 Y62.345
N8425 X69.646 Y61.146
N8430 X69.72 Y59.947
N8435 X69.778 Y58.746
N8440 X69.824 Y57.545
N8445 X69.86 Y56.343
N8450 X69.889 Y55.141
N8455 X69.912 Y53.939
N8460 X69.931 Y52.737
N8465 X69.945 Y51.535
N8470 X69.956 Y50.333
N8475 X69.966 Y49.131
N8480 X69.973 Y47.929
N8485 X69.978 Y46.727
N8490 X69.986 Y44.323
N8495 X69.992 Y41.919
N8500 X69.996 Y38.312
N8505 X69.999 Y31.701
N8510 X69.805 Y30.514
N8515 X69.223 Y29.463
N8520 X68.403 Y28.584
N8525 X67.439 Y27.866
N8530 X66.385 Y27.287
N8535 X65.277 Y26.821
N8540 X64.134 Y26.449
N8545 X62.969 Y26.152
N8550 X61.791 Y25.915
N8555 X60.604 Y25.726
N8560 X59.411 Y25.577
N8565 X58.215 Y25.457
N8570 X57.016 Y25.363
N8575 X55.816 Y25.288
N8580 X54.616 Y25.228
N8585 X53.415 Y25.181
N8590 X52.213 Y25.143
N8595 X51.011 Y25.114
N8600 X49.81 Y25.09
N8605 X48.608 Y25.071
N8610 X47.406 Y25.056
N8615 X46.204 Y25.045
N8620 X45.001 Y25.035
N8625 X43.799 Y25.028
N8630 X42.597 Y25.022
N8635 X40.193 Y25.014
N8640 X37.789 Y25.009
N8645 X36.587 Y25.007
N8650 X35.409 Y25.248
N8655 X34.374 Y25.859
N8660 X33.512 Y26.697
N8665 X32.808 Y27.671
N8670 X32.24 Y28.731
N8675 X31.784 Y29.843
N8680 X31.42 Y30.989
N8685 X31.129 Y32.155
N8690 X30.897 Y33.335
N8695 X30.712 Y34.522
N8700 X30.565 Y35.716
N8705 X30.449 Y36.912
N8710 X30.356 Y38.111
N8715 X30.282 Y39.31
N8720 X30.224 Y40.511
N8725 X30.177 Y41.712
N8730 X30.141 Y42.914
N8735 X30.111 Y44.116
N8740 X30.093 Y45.05
N8745 X30.085 Y45.184
N8750 X30.066 Y45.318
N8755 X30.037 Y45.449
N8760 X29.977 Y45.672
N8765 X29.922 Y45.892
N8770 X29.787 Y46.492
N8775 X29.739 Y46.792
N8780 X29.677 Y47.391
N8785 X29.649 Y47.691
N8790 X29.519 Y49.189
N8795 X29.516 Y49.489
N8800 Y49.788
N8805 X29.519 Y50.088
N8810 X29.597 Y50.987
N8815 X29.642 Y52.188
N8820 X29.729 Y53.387
N8825 X29.794 Y54.588
N8830 X29.844 Y55.789
N8835 X29.882 Y56.99
N8840 X29.911 Y58.192
N8845 X29.932 Y59.394
N8850 X29.949 Y60.596
N8855 X29.961 Y61.798
N8860 X29.971 Y63.
N8865 X30.336 Y64.145
N8870 X31.022 Y65.133
N8875 X31.903 Y65.95
N8880 X32.904 Y66.615
N8885 X33.98 Y67.153
N8890 X35.102 Y67.584
N8895 X36.253 Y67.929
N8900 X37.423 Y68.204
N8905 X38.605 Y68.424
N8910 X39.795 Y68.599
N8915 X40.989 Y68.738
N8920 X42.186 Y68.849
N8925 X43.384 Y68.937
N8930 X44.585 Y69.007
N8935 X45.785 Y69.063
N8940 X46.987 Y69.107
N8945 X48.188 Y69.142
N8950 X49.39 Y69.17
N8955 X50.592 Y69.192
N8960 X51.794 Y69.21
N8965 X52.996 Y69.224
N8970 X54.198 Y69.235
N8975 X55.4 Y69.244
N8980 X56.602 Y69.251
N8985 X57.804 Y69.256
N8990 X58.405 Y69.243
N8995 X59.583 Y69.003
N9000 X60.618 Y68.391
N9005 X61.48 Y67.554
N9010 X62.184 Y66.579
N9015 X62.752 Y65.52
N9020 X63.209 Y64.408
N9025 X63.574 Y63.263
N9030 X63.866 Y62.096
N9035 X64.098 Y60.917
N9040 X64.283 Y59.729
N9045 X64.43 Y58.536
N9050 X64.547 Y57.34
N9055 X64.641 Y56.141
N9060 X64.715 Y54.941
N9065 X64.717 Y54.892
N9070 X64.727 Y54.775
N9075 X64.745 Y54.658
N9080 X64.772 Y54.543
N9085 X65.023 Y53.606
N9090 X65.078 Y53.385
N9095 X65.214 Y52.785
N9100 X65.261 Y52.485
N9105 X65.323 Y51.886
N9110 X65.351 Y51.586
N9115 X65.481 Y50.088
N9120 X65.484 Y49.788
N9125 Y49.489
N9130 X65.481 Y49.189
N9135 X65.403 Y48.29
N9140 X65.358 Y47.089
N9145 X65.27 Y45.89
N9150 X65.203 Y44.69
N9155 X65.153 Y43.488
N9160 X65.115 Y42.287
N9165 X65.087 Y41.085
N9170 X65.065 Y39.883
N9175 X65.049 Y38.681
N9180 X65.037 Y37.479
N9185 X65.028 Y36.277
N9190 X64.666 Y35.131
N9195 X63.982 Y34.143
N9200 X63.1 Y33.325
N9205 X62.099 Y32.66
N9210 X61.024 Y32.123
N9215 X59.901 Y31.692
N9220 X58.75 Y31.347
N9225 X57.579 Y31.072
N9230 X56.397 Y30.853
N9235 X55.208 Y30.678
N9240 X54.014 Y30.539
N9245 X52.817 Y30.428
N9250 X51.618 Y30.34
N9255 X50.418 Y30.27
N9260 X49.217 Y30.215
N9265 X48.016 Y30.17
N9270 X46.814 Y30.135
N9275 X45.613 Y30.107
N9280 X44.411 Y30.085
N9285 X43.209 Y30.068
N9290 X42.007 Y30.054
N9295 X41.407 Y30.095
N9300 X40.244 Y30.398
N9305 X39.234 Y31.05
N9310 X38.397 Y31.913
N9315 X37.716 Y32.904
N9320 X37.166 Y33.973
N9325 X36.794 Y34.917
N9330 X36.663 Y35.174
N9335 X36.485 Y35.402
N9340 X36.267 Y35.591
N9345 X35.668 Y36.109
N9350 X35.447 Y36.303
N9355 X34.171 Y37.579
N9360 X33.96 Y37.801
N9365 X33.871 Y37.895
N9370 X33.689 Y38.101
N9375 X33.249 Y38.7
N9380 X33.034 Y39.
N9385 X32.614 Y39.599
N9390 X32.373 Y39.948
N9395 X32. Y40.498
N9400 X31.837 Y40.798
N9405 X31.536 Y41.397
N9410 X31.475 Y41.526
N9415 X31.115 Y42.296
N9420 X30.7 Y43.195
N9425 X30.497 Y43.795
N9430 X30.4 Y44.094
N9435 X30.037 Y45.449
N9440 X30.036 Y45.452
N9445 G02 X29.772 Y46.059 Z-5.915 I6.818 J3.325
N9450 X29.709 Y46.338 Z-5.879 I0.934 J0.358
N9455 G01 X29.66 Y46.954 Z-5.8
N9460 X29.462 Y49.442
N9465 X29.413 Y50.057 Z-5.879
N9470 X29.41 Y50.144 Z-5.89
N9475 X29.414 Y50.23 Z-5.901
N9480 X29.432 Y50.343 Z-5.915 F400.
N9485 G02 X29.596 Y50.984 Z-6. I7.422 J-1.566
N9490 G01 X29.597 Y50.987
N9495 X29.649 Y51.586 F800.
N9500 X29.678 Y51.894
N9505 X29.739 Y52.485
N9510 X29.786 Y52.785
N9515 X29.922 Y53.385
N9520 X29.977 Y53.606
N9525 X30.4 Y55.183
N9530 X30.496 Y55.482
N9535 X30.7 Y56.082
N9540 X31.175 Y57.109
N9545 X31.475 Y57.752
N9550 X31.536 Y57.88
N9555 X31.837 Y58.479
N9560 X31.999 Y58.779
N9565 X32.407 Y59.378
N9570 X32.614 Y59.678
N9575 X33.033 Y60.277
N9580 X33.272 Y60.609
N9585 X33.689 Y61.176
N9590 X33.871 Y61.382
N9595 X33.959 Y61.476
N9600 X34.171 Y61.698
N9605 X35.447 Y62.974
N9610 X35.668 Y63.168
N9615 X36.267 Y63.686
N9620 X36.567 Y63.899
N9625 X37.814 Y64.772
N9630 X38.065 Y64.944
N9635 X38.785 Y65.372
N9640 X38.963 Y65.466
N9645 X40.461 Y66.165
N9650 X40.76 Y66.303
N9655 X41.06 Y66.44
N9660 X41.4 Y66.571
N9665 X41.659 Y66.649
N9670 X42.258 Y66.819
N9675 X42.558 Y66.9
N9680 X43.568 Y67.17
N9685 X44.055 Y67.299
N9690 X44.654 Y67.394
N9695 X44.954 Y67.437
N9700 X46.452 Y67.568
N9705 X46.751 Y67.592
N9710 X47.35 Y67.628
N9715 X47.65
N9720 X48.249 Y67.592
N9725 X48.548 Y67.568
N9730 X50.046 Y67.437
N9735 X50.346 Y67.394
N9740 X50.945 Y67.299
N9745 X51.843 Y67.061
N9750 X52.554 Y66.87
N9755 X52.742 Y66.819
N9760 X53.341 Y66.649
N9765 X53.6 Y66.571
N9770 X53.94 Y66.44
N9775 X54.311 Y66.271
N9780 X55.737 Y65.606
N9785 X56.037 Y65.466
N9790 X56.215 Y65.372
N9795 X56.935 Y64.944
N9800 X57.235 Y64.738
N9805 X58.47 Y63.873
N9810 X58.733 Y63.686
N9815 X59.332 Y63.168
N9820 X59.553 Y62.974
N9825 X60.829 Y61.698
N9830 X61.041 Y61.476
N9835 X61.129 Y61.382
N9840 X61.311 Y61.176
N9845 X61.751 Y60.577
N9850 X61.967 Y60.277
N9855 X62.386 Y59.678
N9860 X62.627 Y59.329
N9865 X63.001 Y58.779
N9870 X63.163 Y58.479
N9875 X63.464 Y57.88
N9880 X63.525 Y57.752
N9885 X63.885 Y56.981
N9890 X64.3 Y56.082
N9895 X64.504 Y55.482
N9900 X64.6 Y55.183
N9905 X64.772 Y54.543
N9910 X64.773 Y54.54
N9915 G02 X65.335 Y53.079 Z-5.8 I-8.158 J-3.979
N9920 G01 X65.34 Y53.063
N9925 X65.361 Y52.976
N9930 X65.374 Y52.887
N9935 X65.662 Y50.031
N9940 X65.667 Y49.942
N9945 X65.664 Y49.853
N9950 X65.663 Y49.836
N9955 G02 X65.565 Y49.052 Z-5.901 I-9.048 J0.724
N9960 X65.403 Y48.292 Z-6. I-8.95 J1.509 F400.
N9965 G01 Y48.29
N9970 X65.351 Y47.691 F800.
N9975 X65.322 Y47.383
N9980 X65.261 Y46.792
N9985 X65.213 Y46.492
N9990 X65.078 Y45.892
N9995 X65.023 Y45.672
N10000 X64.6 Y44.094
N10005 X64.503 Y43.795
N10010 X64.3 Y43.195
N10015 X63.825 Y42.168
N10020 X63.525 Y41.526
N10025 X63.464 Y41.397
N10030 X63.163 Y40.798
N10035 X63. Y40.498
N10040 X62.593 Y39.899
N10045 X62.386 Y39.599
N10050 X61.966 Y39.
N10055 X61.728 Y38.669
N10060 X61.311 Y38.101
N10065 X61.129 Y37.895
N10070 X61.04 Y37.801
N10075 X60.829 Y37.579
N10080 X59.553 Y36.303
N10085 X59.332 Y36.109
N10090 X58.733 Y35.591
N10095 X58.433 Y35.378
N10100 X57.185 Y34.505
N10105 X56.935 Y34.333
N10110 X56.214 Y33.905
N10115 X56.037 Y33.812
N10120 X54.539 Y33.113
N10125 X54.24 Y32.974
N10130 X53.94 Y32.837
N10135 X53.599 Y32.706
N10140 X53.341 Y32.629
N10145 X52.742 Y32.458
N10150 X52.442 Y32.377
N10155 X51.431 Y32.107
N10160 X50.945 Y31.978
N10165 X50.346 Y31.883
N10170 X50.046 Y31.84
N10175 X48.548 Y31.709
N10180 X48.249 Y31.686
N10185 X47.65 Y31.65
N10190 X47.35
N10195 X46.751 Y31.686
N10200 X46.452 Y31.709
N10205 X44.954 Y31.84
N10210 X44.654 Y31.883
N10215 X44.055 Y31.978
N10220 X43.157 Y32.217
N10225 X42.447 Y32.407
N10230 X42.258 Y32.458
N10235 X41.659 Y32.629
N10240 X41.401 Y32.706
N10245 X41.06 Y32.837
N10250 X40.69 Y33.006
N10255 X39.263 Y33.671
N10260 X38.963 Y33.812
N10265 X38.786 Y33.905
N10270 X38.065 Y34.333
N10275 X37.765 Y34.539
N10280 X36.487 Y35.435
N10285 X36.267 Y35.591
N10290 X36.181 Y35.632 Z-5.994
N10295 X36.096 Y35.673 Z-5.976
N10300 X36.013 Y35.712 Z-5.948
N10305 X35.937 Y35.724 Z-5.913
N10310 X35.865 Y35.736 Z-5.87
N10315 X35.797 Y35.747 Z-5.819
N10320 X35.736 Y35.757 Z-5.761
N10325 X35.716 Z-5.739
N10330 X35.657 Y35.751 Z-5.664
N10335 X35.607 Y35.746 Z-5.583
N10340 X35.568 Y35.742 Z-5.496
N10345 X35.539 Y35.74 Z-5.404
N10350 X35.522 Y35.738 Z-5.31
N10355 X35.516 Y35.737 Z-5.215
N10360 G00 Z5.
N10365 X-1.55 Y-10.35
N10370 Z-4.5
N10375 G01 Z-5.5 F400.
N10380 Z-7.5
N10385 G03 X0. Y-5.073 I-9.526 J5.664
N10390 G01 Y45.491 F800.
N10395 Y94.477
N10400 X0.054 Y94.772
N10405 X0.266 Y95.335
N10410 X1.006 Y96.283
N10415 X1.968 Y97.003
N10420 X3.039 Y97.55
N10425 X4.167 Y97.965
N10430 X5.327 Y98.28
N10435 X6.505 Y98.52
N10440 X7.693 Y98.702
N10445 X8.887 Y98.841
N10450 X10.085 Y98.946
N10455 X11.284 Y99.025
N10460 X12.485 Y99.086
N10465 X13.686 Y99.132
N10470 X14.887 Y99.167
N10475 X16.089 Y99.193
N10480 X17.291 Y99.214
N10485 X18.493 Y99.229
N10490 X19.695 Y99.241
N10495 X20.897 Y99.249
N10500 X22.099 Y99.256
N10505 X23.301 Y99.261
N10510 X25.706 Y99.268
N10515 X29.312 Y99.273
N10520 X34.12 Y99.276
N10525 X48.546 Y99.277
N10530 X50.95
N10535 X90.018
N10540 X90.318 Y99.252
N10545 X90.898 Y99.094
N10550 X91.884 Y98.406
N10555 X92.633 Y97.466
N10560 X93.202 Y96.407
N10565 X93.634 Y95.286
N10570 X93.963 Y94.129
N10575 X94.212 Y92.953
N10580 X94.402 Y91.766
N10585 X94.545 Y90.573
N10590 X94.655 Y89.376
N10595 X94.738 Y88.176
N10600 X94.801 Y86.976
N10605 X94.849 Y85.775
N10610 X94.885 Y84.573
N10615 X94.913 Y83.371
N10620 X94.934 Y82.169
N10625 X94.95 Y80.967
N10630 X94.962 Y79.765
N10635 X94.971 Y78.563
N10640 X94.978 Y77.361
N10645 X94.983 Y76.159
N10650 X94.99 Y73.755
N10655 X94.994 Y71.351
N10660 X94.998 Y66.542
N10665 X95. Y55.723
N10670 Y38.894
N10675 Y4.934
N10680 X94.951 Y4.638
N10685 X94.75 Y4.072
N10690 X94.052 Y3.093
N10695 X93.107 Y2.349
N10700 X92.046 Y1.784
N10705 X90.923 Y1.355
N10710 X89.766 Y1.03
N10715 X88.59 Y0.782
N10720 X87.402 Y0.594
N10725 X86.209 Y0.451
N10730 X85.012 Y0.343
N10735 X83.812 Y0.26
N10740 X82.612 Y0.198
N10745 X81.411 Y0.15
N10750 X80.209 Y0.114
N10755 X79.007 Y0.087
N10760 X77.805 Y0.066
N10765 X76.603 Y0.05
N10770 X75.401 Y0.038
N10775 X74.199 Y0.029
N10780 X72.997 Y0.022
N10785 X71.795 Y0.017
N10790 X69.391 Y0.01
N10795 X66.987 Y0.006
N10800 X62.178 Y0.002
N10805 X51.359 Y0.
N10810 X29.721
N10815 X9.887
N10820 X9.299 Y0.127
N10825 X8.266 Y0.741
N10830 X7.481 Y1.651
N10835 X6.884 Y2.695
N10840 X6.431 Y3.808
N10845 X6.087 Y4.96
N10850 X5.826 Y6.134
N10855 X5.627 Y7.319
N10860 X5.476 Y8.512
N10865 X5.362 Y9.708
N10870 X5.275 Y10.907
N10875 X5.209 Y12.108
N10880 X5.159 Y13.309
N10885 X5.12 Y14.51
N10890 X5.091 Y15.712
N10895 X5.07 Y16.914
N10900 X5.053 Y18.116
N10905 X5.04 Y19.318
N10910 X5.03 Y20.52
N10915 X5.023 Y21.722
N10920 X5.018 Y22.924
N10925 X5.013 Y24.126
N10930 X5.008 Y26.53
N10935 X5.004 Y28.935
N10940 X5.001 Y33.743
N10945 X5. Y46.966
N10950 Y79.423
N10955 Y88.439
N10960 X5.134 Y89.025
N10965 X5.638 Y90.116
N10970 X6.445 Y91.007
N10975 X7.415 Y91.717
N10980 X8.479 Y92.277
N10985 X9.597 Y92.717
N10990 X10.749 Y93.062
N10995 X11.921 Y93.331
N11000 X13.104 Y93.541
N11005 X14.295 Y93.705
N11010 X15.49 Y93.833
N11015 X16.688 Y93.932
N11020 X17.888 Y94.01
N11025 X19.089 Y94.07
N11030 X20.29 Y94.116
N11035 X21.491 Y94.153
N11040 X22.693 Y94.181
N11045 X23.895 Y94.202
N11050 X25.097 Y94.219
N11055 X26.299 Y94.233
N11060 X27.501 Y94.243
N11065 X28.703 Y94.251
N11070 X29.905 Y94.257
N11075 X31.107 Y94.261
N11080 X33.512 Y94.268
N11085 X37.118 Y94.273
N11090 X41.926 Y94.276
N11095 X44.33
N11100 X71.979 Y94.277
N11105 X84.
N11110 X84.594 Y94.185
N11115 X85.71 Y93.738
N11120 X86.625 Y92.959
N11125 X87.357 Y92.005
N11130 X87.935 Y90.951
N11135 X88.389 Y89.838
N11140 X88.744 Y88.689
N11145 X89.022 Y87.52
N11150 X89.24 Y86.338
N11155 X89.409 Y85.148
N11160 X89.541 Y83.953
N11165 X89.643 Y82.755
N11170 X89.723 Y81.556
N11175 X89.785 Y80.355
N11180 X89.834 Y79.154
N11185 X89.871 Y77.952
N11190 X89.9 Y76.751
N11195 X89.923 Y75.549
N11200 X89.94 Y74.347
N11205 X89.954 Y73.145
N11210 X89.964 Y71.943
N11215 X89.972 Y70.741
N11220 X89.979 Y69.538
N11225 X89.983 Y68.336
N11230 X89.99 Y65.932
N11235 X89.995 Y62.326
N11240 X89.998 Y57.517
N11245 X90. Y44.294
N11250 Y34.677
N11255 Y10.635
N11260 X89.818 Y10.062
N11265 X89.247 Y9.005
N11270 X88.406 Y8.146
N11275 X87.417 Y7.463
N11280 X86.342 Y6.924
N11285 X85.217 Y6.501
N11290 X84.061 Y6.169
N11295 X82.888 Y5.91
N11300 X81.703 Y5.708
N11305 X80.511 Y5.55
N11310 X79.315 Y5.428
N11315 X78.117 Y5.332
N11320 X76.917 Y5.258
N11325 X75.716 Y5.2
N11330 X74.515 Y5.155
N11335 X73.313 Y5.12
N11340 X72.112 Y5.093
N11345 X70.91 Y5.072
N11350 X69.708 Y5.056
N11355 X68.506 Y5.043
N11360 X67.304 Y5.033
N11365 X66.102 Y5.026
N11370 X64.899 Y5.02
N11375 X63.697 Y5.015
N11380 X61.293 Y5.009
N11385 X57.687 Y5.004
N11390 X51.676 Y5.001
N11395 X32.443 Y5.
N11400 X15.613
N11405 X14.47 Y5.371
N11410 X13.521 Y6.11
N11415 X12.761 Y7.041
N11420 X12.159 Y8.081
N11425 X11.685 Y9.186
N11430 X11.314 Y10.329
N11435 X11.024 Y11.496
N11440 X10.797 Y12.676
N11445 X10.62 Y13.865
N11450 X10.482 Y15.06
N11455 X10.374 Y16.257
N11460 X10.29 Y17.456
N11465 X10.225 Y18.656
N11470 X10.175 Y19.857
N11475 X10.136 Y21.059
N11480 X10.105 Y22.261
N11485 X10.081 Y23.462
N11490 X10.063 Y24.664
N11495 X10.049 Y25.866
N11500 X10.038 Y27.068
N11505 X10.029 Y28.271
N11510 X10.023 Y29.473
N11515 X10.017 Y30.675
N11520 X10.01 Y33.079
N11525 X10.005 Y36.685
N11530 X10.002 Y41.494
N11535 X10. Y53.515
N11540 Y54.717
N11545 Y82.966
N11550 X10.114 Y83.556
N11555 X10.557 Y84.674
N11560 X11.311 Y85.61
N11565 X12.243 Y86.37
N11570 X13.279 Y86.979
N11575 X14.379 Y87.464
N11580 X15.518 Y87.849
N11585 X16.681 Y88.153
N11590 X17.858 Y88.394
N11595 X19.046 Y88.583
N11600 X20.238 Y88.732
N11605 X21.435 Y88.85
N11610 X22.633 Y88.942
N11615 X23.833 Y89.014
N11620 X25.034 Y89.071
N11625 X26.235 Y89.116
N11630 X27.437 Y89.151
N11635 X28.639 Y89.178
N11640 X29.841 Y89.2
N11645 X31.042 Y89.217
N11650 X32.245 Y89.23
N11655 X33.447 Y89.24
N11660 X34.649 Y89.249
N11665 X35.851 Y89.255
N11670 X37.053 Y89.26
N11675 X39.457 Y89.267
N11680 X43.063 Y89.272
N11685 X47.872 Y89.276
N11690 X59.893 Y89.277
N11695 X79.127
N11700 X80.26 Y88.878
N11705 X81.218 Y88.152
N11710 X81.999 Y87.238
N11715 X82.626 Y86.212
N11720 X83.126 Y85.119
N11725 X83.523 Y83.984
N11730 X83.837 Y82.824
N11735 X84.085 Y81.647
N11740 X84.281 Y80.461
N11745 X84.435 Y79.269
N11750 X84.557 Y78.073
N11755 X84.652 Y76.875
N11760 X84.727 Y75.675
N11765 X84.786 Y74.475
N11770 X84.832 Y73.273
N11775 X84.869 Y72.072
N11780 X84.897 Y70.87
N11785 X84.92 Y69.668
N11790 X84.937 Y68.466
N11795 X84.951 Y67.264
N11800 X84.962 Y66.062
N11805 X84.97 Y64.86
N11810 X84.977 Y63.658
N11815 X84.982 Y62.456
N11820 X84.989 Y60.052
N11825 X84.995 Y56.445
N11830 X84.998 Y51.637
N11835 X85. Y40.818
N11840 Y39.616
N11845 Y16.776
N11850 X84.984 Y16.175
N11855 X84.702 Y15.006
N11860 X84.043 Y14.001
N11865 X83.166 Y13.179
N11870 X82.163 Y12.516
N11875 X81.084 Y11.986
N11880 X79.958 Y11.566
N11885 X78.803 Y11.233
N11890 X77.63 Y10.971
N11895 X76.446 Y10.763
N11900 X75.255 Y10.6
N11905 X74.06 Y10.471
N11910 X72.862 Y10.37
N11915 X71.662 Y10.29
N11920 X70.462 Y10.227
N11925 X69.261 Y10.178
N11930 X68.059 Y10.14
N11935 X66.857 Y10.109
N11940 X65.656 Y10.085
N11945 X64.454 Y10.067
N11950 X63.252 Y10.052
N11955 X62.05 Y10.041
N11960 X60.847 Y10.032
N11965 X59.645 Y10.025
N11970 X58.443 Y10.019
N11975 X56.039 Y10.012
N11980 X53.635 Y10.007
N11985 X50.029 Y10.003
N11990 X42.816 Y10.001
N11995 X21.178 Y10.
N12000 X20.593 Y10.137
N12005 X19.492 Y10.62
N12010 X18.575 Y11.397
N12015 X17.832 Y12.342
N12020 X17.237 Y13.386
N12025 X16.764 Y14.491
N12030 X16.389 Y15.633
N12035 X16.093 Y16.799
N12040 X15.859 Y17.978
N12045 X15.675 Y19.166
N12050 X15.53 Y20.359
N12055 X15.416 Y21.556
N12060 X15.326 Y22.754
N12065 X15.256 Y23.954
N12070 X15.2 Y25.155
N12075 X15.157 Y26.357
N12080 X15.123 Y27.558
N12085 X15.096 Y28.76
N12090 X15.075 Y29.962
N12095 X15.059 Y31.164
N12100 X15.046 Y32.366
N12105 X15.036 Y33.568
N12110 X15.028 Y34.77
N12115 X15.022 Y35.972
N12120 X15.017 Y37.174
N12125 X15.01 Y39.579
N12130 X15.005 Y43.185
N12135 X15.002 Y47.993
N12140 X15. Y60.014
N12145 Y70.833
N12150 Y78.046
N12155 X15.327 Y79.203
N12160 X16. Y80.199
N12165 X16.878 Y81.02
N12170 X17.879 Y81.686
N12175 X18.956 Y82.219
N12180 X20.08 Y82.646
N12185 X21.233 Y82.985
N12190 X22.405 Y83.255
N12195 X23.588 Y83.469
N12200 X24.778 Y83.639
N12205 X25.972 Y83.773
N12210 X27.17 Y83.879
N12215 X28.369 Y83.963
N12220 X29.569 Y84.03
N12225 X30.77 Y84.082
N12230 X31.971 Y84.124
N12235 X33.173 Y84.156
N12240 X34.375 Y84.182
N12245 X35.577 Y84.202
N12250 X36.779 Y84.218
N12255 X37.981 Y84.231
N12260 X39.183 Y84.241
N12265 X40.385 Y84.249
N12270 X41.587 Y84.255
N12275 X42.789 Y84.26
N12280 X45.193 Y84.266
N12285 X48.8 Y84.272
N12290 X53.608 Y84.275
N12295 X56.012 Y84.276
N12300 X73.443 Y84.277
N12305 X74.036 Y84.181
N12310 X75.168 Y83.777
N12315 X76.128 Y83.053
N12320 X76.913 Y82.143
N12325 X77.547 Y81.121
N12330 X78.055 Y80.032
N12335 X78.46 Y78.9
N12340 X78.781 Y77.741
N12345 X79.036 Y76.567
N12350 X79.239 Y75.382
N12355 X79.399 Y74.19
N12360 X79.525 Y72.995
N12365 X79.626 Y71.797
N12370 X79.705 Y70.598
N12375 X79.767 Y69.397
N12380 X79.817 Y68.196
N12385 X79.855 Y66.995
N12390 X79.886 Y65.793
N12395 X79.91 Y64.591
N12400 X79.929 Y63.389
N12405 X79.945 Y62.187
N12410 X79.956 Y60.985
N12415 X79.966 Y59.783
N12420 X79.973 Y58.581
N12425 X79.979 Y57.379
N12430 X79.987 Y54.975
N12435 X79.99 Y53.772
N12440 X79.995 Y50.166
N12445 X79.998 Y45.358
N12450 X80. Y33.337
N12455 Y21.316
N12460 X79.708 Y20.149
N12465 X79.055 Y19.14
N12470 X78.189 Y18.307
N12475 X77.194 Y17.632
N12480 X76.121 Y17.089
N12485 X75. Y16.656
N12490 X73.848 Y16.311
N12495 X72.678 Y16.037
N12500 X71.496 Y15.82
N12505 X70.306 Y15.648
N12510 X69.111 Y15.512
N12515 X67.914 Y15.404
N12520 X66.715 Y15.319
N12525 X65.515 Y15.251
N12530 X64.314 Y15.198
N12535 X63.113 Y15.156
N12540 X61.911 Y15.123
N12545 X60.709 Y15.097
N12550 X59.507 Y15.076
N12555 X58.305 Y15.06
N12560 X57.103 Y15.047
N12565 X55.901 Y15.037
N12570 X54.699 Y15.029
N12575 X53.497 Y15.023
N12580 X52.295 Y15.018
N12585 X49.891 Y15.011
N12590 X46.284 Y15.005
N12595 X41.476 Y15.002
N12600 X30.657 Y15.
N12605 X27.051
N12610 X26.45 Y15.008
N12615 X25.272 Y15.249
N12620 X24.242 Y15.87
N12625 X23.39 Y16.718
N12630 X22.698 Y17.701
N12635 X22.143 Y18.767
N12640 X21.699 Y19.884
N12645 X21.345 Y21.033
N12650 X21.064 Y22.202
N12655 X20.841 Y23.383
N12660 X20.665 Y24.572
N12665 X20.525 Y25.766
N12670 X20.414 Y26.963
N12675 X20.327 Y28.162
N12680 X20.258 Y29.362
N12685 X20.203 Y30.563
N12690 X20.16 Y31.764
N12695 X20.126 Y32.966
N12700 X20.099 Y34.167
N12705 X20.078 Y35.369
N12710 X20.062 Y36.571
N12715 X20.048 Y37.773
N12720 X20.038 Y38.975
N12725 X20.03 Y40.178
N12730 X20.024 Y41.38
N12735 X20.018 Y42.582
N12740 X20.011 Y44.986
N12745 X20.006 Y48.592
N12750 X20.002 Y53.401
N12755 X20. Y64.22
N12760 Y72.634
N12765 X20.199 Y73.82
N12770 X20.787 Y74.868
N12775 X21.613 Y75.742
N12780 X22.581 Y76.454
N12785 X23.637 Y77.028
N12790 X24.748 Y77.489
N12795 X25.892 Y77.857
N12800 X27.058 Y78.15
N12805 X28.237 Y78.383
N12810 X29.425 Y78.569
N12815 X30.618 Y78.716
N12820 X31.814 Y78.833
N12825 X33.013 Y78.925
N12830 X34.213 Y78.999
N12835 X35.413 Y79.057
N12840 X36.615 Y79.103
N12845 X37.816 Y79.14
N12850 X39.018 Y79.168
N12855 X40.22 Y79.191
N12860 X41.422 Y79.209
N12865 X42.624 Y79.224
N12870 X43.826 Y79.235
N12875 X45.028 Y79.244
N12880 X46.23 Y79.251
N12885 X47.432 Y79.257
N12890 X49.836 Y79.264
N12895 X52.24 Y79.269
N12900 X55.847 Y79.273
N12905 X61.857 Y79.276
N12910 X67.868 Y79.277
N12915 X68.469 Y79.265
N12920 X69.646 Y79.023
N12925 X70.679 Y78.408
N12930 X71.537 Y77.566
N12935 X72.236 Y76.588
N12940 X72.799 Y75.525
N12945 X73.25 Y74.411
N12950 X73.61 Y73.264
N12955 X73.897 Y72.097
N12960 X74.125 Y70.917
N12965 X74.307 Y69.728
N12970 X74.451 Y68.535
N12975 X74.565 Y67.338
N12980 X74.656 Y66.14
N12985 X74.728 Y64.94
N12990 X74.784 Y63.739
N12995 X74.83 Y62.538
N13000 X74.865 Y61.336
N13005 X74.893 Y60.134
N13010 X74.916 Y58.932
N13015 X74.933 Y57.73
N13020 X74.947 Y56.528
N13025 X74.959 Y55.326
N13030 X74.967 Y54.124
N13035 X74.974 Y52.922
N13040 X74.98 Y51.72
N13045 X74.987 Y49.316
N13050 X74.992 Y46.912
N13055 X74.996 Y43.305
N13060 X74.999 Y37.295
N13065 X75. Y27.678
N13070 Y26.476
N13075 X74.738 Y25.303
N13080 X74.109 Y24.278
N13085 X73.26 Y23.427
N13090 X72.277 Y22.736
N13095 X71.211 Y22.178
N13100 X70.095 Y21.732
N13105 X68.947 Y21.375
N13110 X67.779 Y21.091
N13115 X66.599 Y20.865
N13120 X65.41 Y20.686
N13125 X64.216 Y20.543
N13130 X63.02 Y20.43
N13135 X61.821 Y20.341
N13140 X60.621 Y20.27
N13145 X59.42 Y20.213
N13150 X58.219 Y20.169
N13155 X57.017 Y20.133
N13160 X55.815 Y20.105
N13165 X54.614 Y20.083
N13170 X53.412 Y20.066
N13175 X52.21 Y20.052
N13180 X51.007 Y20.041
N13185 X49.805 Y20.032
N13190 X48.603 Y20.026
N13195 X47.401 Y20.02
N13200 X44.997 Y20.013
N13205 X42.593 Y20.008
N13210 X38.986 Y20.004
N13215 X31.774 Y20.001
N13220 X31.177 Y20.076
N13225 X30.031 Y20.437
N13230 X29.048 Y21.129
N13235 X28.239 Y22.018
N13240 X27.582 Y23.025
N13245 X27.054 Y24.105
N13250 X26.632 Y25.231
N13255 X26.296 Y26.385
N13260 X26.028 Y27.557
N13265 X25.815 Y28.74
N13270 X25.646 Y29.93
N13275 X25.512 Y31.124
N13280 X25.405 Y32.322
N13285 X25.321 Y33.521
N13290 X25.254 Y34.721
N13295 X25.201 Y35.922
N13300 X25.159 Y37.123
N13305 X25.125 Y38.325
N13310 X25.099 Y39.527
N13315 X25.078 Y40.729
N13320 X25.062 Y41.931
N13325 X25.049 Y43.133
N13330 X25.039 Y44.335
N13335 X25.03 Y45.537
N13340 X25.024 Y46.739
N13345 X25.019 Y47.941
N13350 X25.012 Y50.345
N13355 X25.006 Y53.952
N13360 X25.002 Y58.76
N13365 X25. Y67.175
N13370 X25.024 Y67.775
N13375 X25.291 Y68.948
N13380 X25.92 Y69.972
N13385 X26.769 Y70.823
N13390 X27.751 Y71.516
N13395 X28.815 Y72.076
N13400 X29.93 Y72.525
N13405 X31.077 Y72.884
N13410 X32.245 Y73.17
N13415 X33.425 Y73.397
N13420 X34.613 Y73.579
N13425 X35.807 Y73.723
N13430 X37.003 Y73.837
N13435 X38.202 Y73.928
N13440 X39.402 Y74.001
N13445 X40.603 Y74.058
N13450 X41.804 Y74.103
N13455 X43.006 Y74.14
N13460 X44.207 Y74.168
N13465 X45.409 Y74.191
N13470 X46.611 Y74.209
N13475 X47.813 Y74.223
N13480 X49.015 Y74.234
N13485 X50.217 Y74.243
N13490 X51.419 Y74.25
N13495 X52.622 Y74.256
N13500 X55.026 Y74.264
N13505 X57.43 Y74.269
N13510 X61.036 Y74.273
N13515 X63.44 Y74.275
N13520 X64.616 Y74.025
N13525 X65.648 Y73.407
N13530 X66.507 Y72.567
N13535 X67.207 Y71.589
N13540 X67.772 Y70.528
N13545 X68.226 Y69.415
N13550 X68.589 Y68.269
N13555 X68.878 Y67.102
N13560 X69.109 Y65.923
N13565 X69.292 Y64.735
N13570 X69.438 Y63.541
N13575 X69.554 Y62.345
N13580 X69.646 Y61.146
N13585 X69.72 Y59.947
N13590 X69.778 Y58.746
N13595 X69.824 Y57.545
N13600 X69.86 Y56.343
N13605 X69.889 Y55.141
N13610 X69.912 Y53.939
N13615 X69.931 Y52.737
N13620 X69.945 Y51.535
N13625 X69.956 Y50.333
N13630 X69.966 Y49.131
N13635 X69.973 Y47.929
N13640 X69.978 Y46.727
N13645 X69.986 Y44.323
N13650 X69.992 Y41.919
N13655 X69.996 Y38.312
N13660 X69.999 Y31.701
N13665 X69.805 Y30.514
N13670 X69.223 Y29.463
N13675 X68.403 Y28.584
N13680 X67.439 Y27.866
N13685 X66.385 Y27.287
N13690 X65.277 Y26.821
N13695 X64.134 Y26.449
N13700 X62.969 Y26.152
N13705 X61.791 Y25.915
N13710 X60.604 Y25.726
N13715 X59.411 Y25.577
N13720 X58.215 Y25.457
N13725 X57.016 Y25.363
N13730 X55.816 Y25.288
N13735 X54.616 Y25.228
N13740 X53.415 Y25.181
N13745 X52.213 Y25.143
N13750 X51.011 Y25.114
N13755 X49.81 Y25.09
N13760 X48.608 Y25.071
N13765 X47.406 Y25.056
N13770 X46.204 Y25.045
N13775 X45.001 Y25.035
N13780 X43.799 Y25.028
N13785 X42.597 Y25.022
N13790 X40.193 Y25.014
N13795 X37.789 Y25.009
N13800 X36.587 Y25.007
N13805 X35.409 Y25.248
N13810 X34.374 Y25.859
N13815 X33.512 Y26.697
N13820 X32.808 Y27.671
N13825 X32.24 Y28.731
N13830 X31.784 Y29.843
N13835 X31.42 Y30.989
N13840 X31.129 Y32.155
N13845 X30.897 Y33.335
N13850 X30.712 Y34.522
N13855 X30.565 Y35.716
N13860 X30.449 Y36.912
N13865 X30.356 Y38.111
N13870 X30.282 Y39.31
N13875 X30.224 Y40.511
N13880 X30.177 Y41.712
N13885 X30.141 Y42.914
N13890 X30.111 Y44.116
N13895 X30.093 Y45.05
N13900 X30.085 Y45.184
N13905 X30.066 Y45.318
N13910 X30.037 Y45.449
N13915 X29.977 Y45.672
N13920 X29.922 Y45.892
N13925 X29.787 Y46.492
N13930 X29.739 Y46.792
N13935 X29.677 Y47.391
N13940 X29.649 Y47.691
N13945 X29.519 Y49.189
N13950 X29.516 Y49.489
N13955 Y49.788
N13960 X29.519 Y50.088
N13965 X29.597 Y50.987
N13970 X29.642 Y52.188
N13975 X29.729 Y53.387
N13980 X29.794 Y54.588
N13985 X29.844 Y55.789
N13990 X29.882 Y56.99
N13995 X29.911 Y58.192
N14000 X29.932 Y59.394
N14005 X29.949 Y60.596
N14010 X29.961 Y61.798
N14015 X29.971 Y63.
N14020 X30.336 Y64.145
N14025 X31.022 Y65.133
N14030 X31.903 Y65.95
N14035 X32.904 Y66.615
N14040 X33.98 Y67.153
N14045 X35.102 Y67.584
N14050 X36.253 Y67.929
N14055 X37.423 Y68.204
N14060 X38.605 Y68.424
N14065 X39.795 Y68.599
N14070 X40.989 Y68.738
N14075 X42.186 Y68.849
N14080 X43.384 Y68.937
N14085 X44.585 Y69.007
N14090 X45.785 Y69.063
N14095 X46.987 Y69.107
N14100 X48.188 Y69.142
N14105 X49.39 Y69.17
N14110 X50.592 Y69.192
N14115 X51.794 Y69.21
N14120 X52.996 Y69.224
N14125 X54.198 Y69.235
N14130 X55.4 Y69.244
N14135 X56.602 Y69.251
N14140 X57.804 Y69.256
N14145 X58.405 Y69.243
N14150 X59.583 Y69.003
N14155 X60.618 Y68.391
N14160 X61.48 Y67.554
N14165 X62.184 Y66.579
N14170 X62.752 Y65.52
N14175 X63.209 Y64.408
N14180 X63.574 Y63.263
N14185 X63.866 Y62.096
N14190 X64.098 Y60.917
N14195 X64.283 Y59.729
N14200 X64.43 Y58.536
N14205 X64.547 Y57.34
N14210 X64.641 Y56.141
N14215 X64.715 Y54.941
N14220 X64.717 Y54.892
N14225 X64.727 Y54.775
N14230 X64.745 Y54.658
N14235 X64.772 Y54.543
N14240 X65.023 Y53.606
N14245 X65.078 Y53.385
N14250 X65.214 Y52.785
N14255 X65.261 Y52.485
N14260 X65.323 Y51.886
N14265 X65.351 Y51.586
N14270 X65.481 Y50.088
N14275 X65.484 Y49.788
N14280 Y49.489
N14285 X65.481 Y49.189
N14290 X65.403 Y48.29
N14295 X65.358 Y47.089
N14300 X65.27 Y45.89
N14305 X65.203 Y44.69
N14310 X65.153 Y43.488
N14315 X65.115 Y42.287
N14320 X65.087 Y41.085
N14325 X65.065 Y39.883
N14330 X65.049 Y38.681
N14335 X65.037 Y37.479
N14340 X65.028 Y36.277
N14345 X64.666 Y35.131
N14350 X63.982 Y34.143
N14355 X63.1 Y33.325
N14360 X62.099 Y32.66
N14365 X61.024 Y32.123
N14370 X59.901 Y31.692
N14375 X58.75 Y31.347
N14380 X57.579 Y31.072
N14385 X56.397 Y30.853
N14390 X55.208 Y30.678
N14395 X54.014 Y30.539
N14400 X52.817 Y30.428
N14405 X51.618 Y30.34
N14410 X50.418 Y30.27
N14415 X49.217 Y30.215
N14420 X48.016 Y30.17
N14425 X46.814 Y30.135
N14430 X45.613 Y30.107
N14435 X44.411 Y30.085
N14440 X43.209 Y30.068
N14445 X42.007 Y30.054
N14450 X41.407 Y30.095
N14455 X40.244 Y30.398
N14460 X39.234 Y31.05
N14465 X38.397 Y31.913
N14470 X37.716 Y32.904
N14475 X37.166 Y33.973
N14480 X36.794 Y34.917
N14485 X36.663 Y35.174
N14490 X36.485 Y35.402
N14495 X36.267 Y35.591
N14500 X35.668 Y36.109
N14505 X35.447 Y36.303
N14510 X34.171 Y37.579
N14515 X33.96 Y37.801
N14520 X33.871 Y37.895
N14525 X33.689 Y38.101
N14530 X33.249 Y38.7
N14535 X33.034 Y39.
N14540 X32.614 Y39.599
N14545 X32.373 Y39.948
N14550 X32. Y40.498
N14555 X31.837 Y40.798
N14560 X31.536 Y41.397
N14565 X31.475 Y41.526
N14570 X31.115 Y42.296
N14575 X30.7 Y43.195
N14580 X30.497 Y43.795
N14585 X30.4 Y44.094
N14590 X30.037 Y45.449
N14595 X30.036 Y45.452
N14600 G02 X29.772 Y46.059 Z-7.415 I6.818 J3.325
N14605 X29.709 Y46.338 Z-7.379 I0.934 J0.358
N14610 G01 X29.66 Y46.954 Z-7.3
N14615 X29.462 Y49.442
N14620 X29.413 Y50.057 Z-7.379
N14625 X29.41 Y50.144 Z-7.39
N14630 X29.414 Y50.23 Z-7.401
N14635 X29.432 Y50.343 Z-7.415 F400.
N14640 G02 X29.596 Y50.984 Z-7.5 I7.422 J-1.566
N14645 G01 X29.597 Y50.987
N14650 X29.649 Y51.586 F800.
N14655 X29.678 Y51.894
N14660 X29.739 Y52.485
N14665 X29.786 Y52.785
N14670 X29.922 Y53.385
N14675 X29.977 Y53.606
N14680 X30.4 Y55.183
N14685 X30.496 Y55.482
N14690 X30.7 Y56.082
N14695 X31.175 Y57.109
N14700 X31.475 Y57.752
N14705 X31.536 Y57.88
N14710 X31.837 Y58.479
N14715 X31.999 Y58.779
N14720 X32.407 Y59.378
N14725 X32.614 Y59.678
N14730 X33.033 Y60.277
N14735 X33.272 Y60.609
N14740 X33.689 Y61.176
N14745 X33.871 Y61.382
N14750 X33.959 Y61.476
N14755 X34.171 Y61.698
N14760 X35.447 Y62.974
N14765 X35.668 Y63.168
N14770 X36.267 Y63.686
N14775 X36.567 Y63.899
N14780 X37.814 Y64.772
N14785 X38.065 Y64.944
N14790 X38.785 Y65.372
N14795 X38.963 Y65.466
N14800 X40.461 Y66.165
N14805 X40.76 Y66.303
N14810 X41.06 Y66.44
N14815 X41.4 Y66.571
N14820 X41.659 Y66.649
N14825 X42.258 Y66.819
N14830 X42.558 Y66.9
N14835 X43.568 Y67.17
N14840 X44.055 Y67.299
N14845 X44.654 Y67.394
N14850 X44.954 Y67.437
N14855 X46.452 Y67.568
N14860 X46.751 Y67.592
N14865 X47.35 Y67.628
N14870 X47.65
N14875 X48.249 Y67.592
N14880 X48.548 Y67.568
N14885 X50.046 Y67.437
N14890 X50.346 Y67.394
N14895 X50.945 Y67.299
N14900 X51.843 Y67.061
N14905 X52.554 Y66.87
N14910 X52.742 Y66.819
N14915 X53.341 Y66.649
N14920 X53.6 Y66.571
N14925 X53.94 Y66.44
N14930 X54.311 Y66.271
N14935 X55.737 Y65.606
N14940 X56.037 Y65.466
N14945 X56.215 Y65.372
N14950 X56.935 Y64.944
N14955 X57.235 Y64.738
N14960 X58.47 Y63.873
N14965 X58.733 Y63.686
N14970 X59.332 Y63.168
N14975 X59.553 Y62.974
N14980 X60.829 Y61.698
N14985 X61.041 Y61.476
N14990 X61.129 Y61.382
N14995 X61.311 Y61.176
N15000 X61.751 Y60.577
N15005 X61.967 Y60.277
N15010 X62.386 Y59.678
N15015 X62.627 Y59.329
N15020 X63.001 Y58.779
N15025 X63.163 Y58.479
N15030 X63.464 Y57.88
N15035 X63.525 Y57.752
N15040 X63.885 Y56.981
N15045 X64.3 Y56.082
N15050 X64.504 Y55.482
N15055 X64.6 Y55.183
N15060 X64.772 Y54.543
N15065 X64.773 Y54.54
N15070 G02 X65.335 Y53.079 Z-7.3 I-8.158 J-3.979
N15075 G01 X65.34 Y53.063
N15080 X65.361 Y52.976
N15085 X65.374 Y52.887
N15090 X65.662 Y50.031
N15095 X65.667 Y49.942
N15100 X65.664 Y49.853
N15105 X65.663 Y49.836
N15110 G02 X65.565 Y49.052 Z-7.401 I-9.048 J0.724
N15115 X65.403 Y48.292 Z-7.5 I-8.95 J1.509 F400.
N15120 G01 Y48.29
N15125 X65.351 Y47.691 F800.
N15130 X65.322 Y47.383
N15135 X65.261 Y46.792
N15140 X65.213 Y46.492
N15145 X65.078 Y45.892
N15150 X65.023 Y45.672
N15155 X64.6 Y44.094
N15160 X64.503 Y43.795
N15165 X64.3 Y43.195
N15170 X63.825 Y42.168
N15175 X63.525 Y41.526
N15180 X63.464 Y41.397
N15185 X63.163 Y40.798
N15190 X63. Y40.498
N15195 X62.593 Y39.899
N15200 X62.386 Y39.599
N15205 X61.966 Y39.
N15210 X61.728 Y38.669
N15215 X61.311 Y38.101
N15220 X61.129 Y37.895
N15225 X61.04 Y37.801
N15230 X60.829 Y37.579
N15235 X59.553 Y36.303
N15240 X59.332 Y36.109
N15245 X58.733 Y35.591
N15250 X58.433 Y35.378
N15255 X57.185 Y34.505
N15260 X56.935 Y34.333
N15265 X56.214 Y33.905
N15270 X56.037 Y33.812
N15275 X54.539 Y33.113
N15280 X54.24 Y32.974
N15285 X53.94 Y32.837
N15290 X53.599 Y32.706
N15295 X53.341 Y32.629
N15300 X52.742 Y32.458
N15305 X52.442 Y32.377
N15310 X51.431 Y32.107
N15315 X50.945 Y31.978
N15320 X50.346 Y31.883
N15325 X50.046 Y31.84
N15330 X48.548 Y31.709
N15335 X48.249 Y31.686
N15340 X47.65 Y31.65
N15345 X47.35
N15350 X46.751 Y31.686
N15355 X46.452 Y31.709
N15360 X44.954 Y31.84
N15365 X44.654 Y31.883
N15370 X44.055 Y31.978
N15375 X43.157 Y32.217
N15380 X42.447 Y32.407
N15385 X42.258 Y32.458
N15390 X41.659 Y32.629
N15395 X41.401 Y32.706
N15400 X41.06 Y32.837
N15405 X40.69 Y33.006
N15410 X39.263 Y33.671
N15415 X38.963 Y33.812
N15420 X38.786 Y33.905
N15425 X38.065 Y34.333
N15430 X37.765 Y34.539
N15435 X36.487 Y35.435
N15440 X36.267 Y35.591
N15445 G03 X35.516 Y35.737 I-0.552 J-0.834
N15450 G01 X35.398 Y35.713 Z-7.493
N15455 X35.282 Y35.689 Z-7.471
N15460 X35.169 Y35.666 Z-7.435
N15465 X35.061 Y35.644 Z-7.385
N15470 X34.959 Y35.624 Z-7.323
N15475 X34.866 Y35.605 Z-7.249
N15480 X34.783 Y35.588 Z-7.163
N15485 X34.71 Y35.573 Z-7.068
N15490 X34.648 Y35.56 Z-6.965
N15495 X34.6 Y35.551 Z-6.855
N15500 X34.565 Y35.543 Z-6.739
N15505 X34.543 Y35.539 Z-6.621
N15510 X34.536 Y35.538 Z-6.5
N15515 G00 Z15.

(2D CONTOUR1)
N15520 G00 X57.092 Y-7.571
N15525 Z15.
N15530 Z-3.
N15535 G01 Z-7. F400.
N15540 Z-10.
N15545 X57.091 Y-7.564 Z-10.121
N15550 X57.087 Y-7.543 Z-10.239
N15555 X57.082 Y-7.507 Z-10.355
N15560 X57.075 Y-7.458 Z-10.465
N15565 X57.065 Y-7.396 Z-10.568
N15570 X57.054 Y-7.323 Z-10.663
N15575 X57.042 Y-7.238 Z-10.749
N15580 X57.028 Y-7.144 Z-10.823
N15585 X57.012 Y-7.042 Z-10.885
N15590 X56.996 Y-6.933 Z-10.935
N15595 X56.979 Y-6.819 Z-10.971
N15600 X56.961 Y-6.702 Z-10.993
N15605 X56.943 Y-6.582 Z-11.
N15610 X56.795 Y-5.594
N15615 G03 X55.658 Y-4.753 I-0.989 J-0.148
N15620 G02 X54.1 Y-4.964 I-8.158 J54.392 F800.
N15625 X48.5 Y0. I-0.6 J4.964
N15630 G01 Y30.
N15635 G03 X46.5 I-1.
N15640 G01 Y0.
N15645 G02 X40.9 Y-4.964 I-5.
N15650 X36.248 Y-4.198 I6.6 J54.603
N15655 X32.328 Y-0.059 I1.023 J4.894
N15660 G03 X12.047 Y11.651 I-14.828 J-2.264
N15665 G02 X6.502 Y12.976 I-1.818 J4.658
N15670 X3.513 Y16.622 I40.998 J36.663
N15675 X5.012 Y23.953 I3.999 J3.002
N15680 G01 X30.992 Y38.953
N15685 G03 X29.992 Y40.685 I-0.5 J0.866
N15690 G01 X4.012 Y25.685
N15695 G02 X-3.087 Y28.053 I-2.5 J4.33
N15700 X-4.75 Y32.465 I50.587 J21.586
N15705 X-3.125 Y37.929 I4.75 J1.561
N15710 G03 Y61.348 I-9.375 J11.709
N15715 G02 X-4.75 Y66.812 I3.125 J3.903
N15720 X-3.087 Y71.224 I52.25 J-17.174
N15725 X4.012 Y73.592 I4.599 J-1.962
N15730 G01 X29.992 Y58.592
N15735 G03 X31.358 Y58.958 I0.5 J0.866
N15740 X30.992 Y60.324 I-0.866 J0.5
N15745 G01 X5.012 Y75.324
N15750 G02 X3.513 Y82.656 I2.5 J4.33
N15755 X6.502 Y86.302 I43.987 J-33.017
N15760 X12.047 Y87.627 I3.727 J-3.333
N15765 G03 X32.328 Y99.336 I5.453 J13.973
N15770 G02 X36.248 Y103.475 I4.943 J-0.755
N15775 X40.9 Y104.241 I11.253 J-53.837
N15780 X46.5 Y99.277 I0.6 J-4.964
N15785 G01 Y69.277
N15790 G03 X48.5 I1.
N15795 G01 Y99.277
N15800 G02 X54.1 Y104.241 I5.
N15805 X58.752 Y103.475 I-6.601 J-54.602
N15810 X62.672 Y99.336 I-1.023 J-4.894
N15815 G03 X82.953 Y87.627 I14.828 J2.264
N15820 G02 X88.498 Y86.302 I1.818 J-4.658
N15825 X91.487 Y82.656 I-40.998 J-36.663
N15830 X89.988 Y75.324 I-3.999 J-3.002
N15835 G01 X64.008 Y60.324
N15840 G03 X63.642 Y58.958 I0.5 J-0.866
N15845 X65.008 Y58.592 I0.866 J0.5
N15850 G01 X90.988 Y73.592
N15855 G02 X98.087 Y71.224 I2.5 J-4.33
N15860 X99.75 Y66.812 I-50.587 J-21.585
N15865 X98.125 Y61.348 I-4.75 J-1.561
N15870 G03 Y37.929 I9.375 J-11.709
N15875 G02 X99.75 Y32.465 I-3.125 J-3.903
N15880 X98.087 Y28.053 I-52.25 J17.173
N15885 X90.988 Y25.685 I-4.599 J1.962
N15890 G01 X65.008 Y40.685
N15895 G03 X64.008 Y38.953 I-0.5 J-0.866
N15900 G01 X89.988 Y23.953
N15905 G02 X91.487 Y16.622 I-2.5 J-4.33
N15910 X88.498 Y12.976 I-43.987 J33.017
N15915 X82.953 Y11.651 I-3.727 J3.333
N15920 G03 X62.672 Y-0.059 I-5.453 J-13.974
N15925 G02 X58.752 Y-4.198 I-4.943 J0.755
N15930 X55.658 Y-4.753 I-11.252 J53.837
N15935 G03 X54.817 Y-5.89 I0.148 J-0.989
N15940 G01 X54.966 Y-6.879
N15945 X54.983 Y-6.998 Z-10.993
N15950 X55.001 Y-7.116 Z-10.971
N15955 X55.018 Y-7.23 Z-10.935
N15960 X55.034 Y-7.339 Z-10.885
N15965 X55.05 Y-7.441 Z-10.823
N15970 X55.064 Y-7.535 Z-10.749
N15975 X55.077 Y-7.619 Z-10.663
N15980 X55.088 Y-7.693 Z-10.568
N15985 X55.097 Y-7.755 Z-10.465
N15990 X55.104 Y-7.804 Z-10.355
N15995 X55.11 Y-7.839 Z-10.239
N16000 X55.113 Y-7.861 Z-10.121
N16005 X55.114 Y-7.868 Z-10.
N16010 G00 Z5.
N16015 X57.092 Y-7.571
N16020 Z-3.
N16025 G01 Z-10. F400.
N16030 Z-13.
N16035 X57.091 Y-7.564 Z-13.121
N16040 X57.087 Y-7.543 Z-13.239
N16045 X57.082 Y-7.507 Z-13.355
N16050 X57.075 Y-7.458 Z-13.465
N16055 X57.065 Y-7.396 Z-13.568
N16060 X57.054 Y-7.323 Z-13.663
N16065 X57.042 Y-7.238 Z-13.749
N16070 X57.028 Y-7.144 Z-13.823
N16075 X57.012 Y-7.042 Z-13.885
N16080 X56.996 Y-6.933 Z-13.935
N16085 X56.979 Y-6.819 Z-13.971
N16090 X56.961 Y-6.702 Z-13.993
N16095 X56.943 Y-6.582 Z-14.
N16100 X56.795 Y-5.594
N16105 G03 X55.658 Y-4.753 I-0.989 J-0.148
N16110 G02 X54.1 Y-4.964 I-8.158 J54.392 F800.
N16115 X48.5 Y0. I-0.6 J4.964
N16120 G01 Y30.
N16125 G03 X46.5 I-1.
N16130 G01 Y0.
N16135 G02 X40.9 Y-4.964 I-5.
N16140 X36.248 Y-4.198 I6.6 J54.603
N16145 X32.328 Y-0.059 I1.023 J4.894
N16150 G03 X12.047 Y11.651 I-14.828 J-2.264
N16155 G02 X6.502 Y12.976 I-1.818 J4.658
N16160 X3.513 Y16.622 I40.998 J36.663
N16165 X5.012 Y23.953 I3.999 J3.002
N16170 G01 X30.992 Y38.953
N16175 G03 X29.992 Y40.685 I-0.5 J0.866
N16180 G01 X4.012 Y25.685
N16185 G02 X-3.087 Y28.053 I-2.5 J4.33
N16190 X-4.75 Y32.465 I50.587 J21.586
N16195 X-3.125 Y37.929 I4.75 J1.561
N16200 G03 Y61.348 I-9.375 J11.709
N16205 G02 X-4.75 Y66.812 I3.125 J3.903
N16210 X-3.087 Y71.224 I52.25 J-17.174
N16215 X4.012 Y73.592 I4.599 J-1.962
N16220 G01 X29.992 Y58.592
N16225 G03 X31.358 Y58.958 I0.5 J0.866
N16230 X30.992 Y60.324 I-0.866 J0.5
N16235 G01 X5.012 Y75.324
N16240 G02 X3.513 Y82.656 I2.5 J4.33
N16245 X6.502 Y86.302 I43.987 J-33.017
N16250 X12.047 Y87.627 I3.727 J-3.333
N16255 G03 X32.328 Y99.336 I5.453 J13.973
N16260 G02 X36.248 Y103.475 I4.943 J-0.755
N16265 X40.9 Y104.241 I11.253 J-53.837
N16270 X46.5 Y99.277 I0.6 J-4.964
N16275 G01 Y69.277
N16280 G03 X48.5 I1.
N16285 G01 Y99.277
N16290 G02 X54.1 Y104.241 I5.
N16295 X58.752 Y103.475 I-6.601 J-54.602
N16300 X62.672 Y99.336 I-1.023 J-4.894
N16305 G03 X82.953 Y87.627 I14.828 J2.264
N16310 G02 X88.498 Y86.302 I1.818 J-4.658
N16315 X91.487 Y82.656 I-40.998 J-36.663
N16320 X89.988 Y75.324 I-3.999 J-3.002
N16325 G01 X64.008 Y60.324
N16330 G03 X63.642 Y58.958 I0.5 J-0.866
N16335 X65.008 Y58.592 I0.866 J0.5
N16340 G01 X90.988 Y73.592
N16345 G02 X98.087 Y71.224 I2.5 J-4.33
N16350 X99.75 Y66.812 I-50.587 J-21.585
N16355 X98.125 Y61.348 I-4.75 J-1.561
N16360 G03 Y37.929 I9.375 J-11.709
N16365 G02 X99.75 Y32.465 I-3.125 J-3.903
N16370 X98.087 Y28.053 I-52.25 J17.173
N16375 X90.988 Y25.685 I-4.599 J1.962
N16380 G01 X65.008 Y40.685
N16385 G03 X64.008 Y38.953 I-0.5 J-0.866
N16390 G01 X89.988 Y23.953
N16395 G02 X91.487 Y16.622 I-2.5 J-4.33
N16400 X88.498 Y12.976 I-43.987 J33.017
N16405 X82.953 Y11.651 I-3.727 J3.333
N16410 G03 X62.672 Y-0.059 I-5.453 J-13.974
N16415 G02 X58.752 Y-4.198 I-4.943 J0.755
N16420 X55.658 Y-4.753 I-11.252 J53.837
N16425 G03 X54.817 Y-5.89 I0.148 J-0.989
N16430 G01 X54.966 Y-6.879
N16435 X54.983 Y-6.998 Z-13.993
N16440 X55.001 Y-7.116 Z-13.971
N16445 X55.018 Y-7.23 Z-13.935
N16450 X55.034 Y-7.339 Z-13.885
N16455 X55.05 Y-7.441 Z-13.823
N16460 X55.064 Y-7.535 Z-13.749
N16465 X55.077 Y-7.619 Z-13.663
N16470 X55.088 Y-7.693 Z-13.568
N16475 X55.097 Y-7.755 Z-13.465
N16480 X55.104 Y-7.804 Z-13.355
N16485 X55.11 Y-7.839 Z-13.239
N16490 X55.113 Y-7.861 Z-13.121
N16495 X55.114 Y-7.868 Z-13.
N16500 G00 Z5.
N16505 X57.092 Y-7.571
N16510 Z-3.
N16515 G01 Z-13. F400.
N16520 Z-16.
N16525 X57.091 Y-7.564 Z-16.121
N16530 X57.087 Y-7.543 Z-16.239
N16535 X57.082 Y-7.507 Z-16.355
N16540 X57.075 Y-7.458 Z-16.465
N16545 X57.065 Y-7.396 Z-16.568
N16550 X57.054 Y-7.323 Z-16.663
N16555 X57.042 Y-7.238 Z-16.749
N16560 X57.028 Y-7.144 Z-16.823
N16565 X57.012 Y-7.042 Z-16.885
N16570 X56.996 Y-6.933 Z-16.935
N16575 X56.979 Y-6.819 Z-16.971
N16580 X56.961 Y-6.702 Z-16.993
N16585 X56.943 Y-6.582 Z-17.
N16590 X56.795 Y-5.594
N16595 G03 X55.658 Y-4.753 I-0.989 J-0.148
N16600 G02 X54.1 Y-4.964 I-8.158 J54.392 F800.
N16605 X48.5 Y0. I-0.6 J4.964
N16610 G01 Y30.
N16615 G03 X46.5 I-1.
N16620 G01 Y0.
N16625 G02 X40.9 Y-4.964 I-5.
N16630 X36.248 Y-4.198 I6.6 J54.603
N16635 X32.328 Y-0.059 I1.023 J4.894
N16640 G03 X12.047 Y11.651 I-14.828 J-2.264
N16645 G02 X6.502 Y12.976 I-1.818 J4.658
N16650 X3.513 Y16.622 I40.998 J36.663
N16655 X5.012 Y23.953 I3.999 J3.002
N16660 G01 X30.992 Y38.953
N16665 G03 X29.992 Y40.685 I-0.5 J0.866
N16670 G01 X4.012 Y25.685
N16675 G02 X-3.087 Y28.053 I-2.5 J4.33
N16680 X-4.75 Y32.465 I50.587 J21.586
N16685 X-3.125 Y37.929 I4.75 J1.561
N16690 G03 Y61.348 I-9.375 J11.709
N16695 G02 X-4.75 Y66.812 I3.125 J3.903
N16700 X-3.087 Y71.224 I52.25 J-17.174
N16705 X4.012 Y73.592 I4.599 J-1.962
N16710 G01 X29.992 Y58.592
N16715 G03 X31.358 Y58.958 I0.5 J0.866
N16720 X30.992 Y60.324 I-0.866 J0.5
N16725 G01 X5.012 Y75.324
N16730 G02 X3.513 Y82.656 I2.5 J4.33
N16735 X6.502 Y86.302 I43.987 J-33.017
N16740 X12.047 Y87.627 I3.727 J-3.333
N16745 G03 X32.328 Y99.336 I5.453 J13.973
N16750 G02 X36.248 Y103.475 I4.943 J-0.755
N16755 X40.9 Y104.241 I11.253 J-53.837
N16760 X46.5 Y99.277 I0.6 J-4.964
N16765 G01 Y69.277
N16770 G03 X48.5 I1.
N16775 G01 Y99.277
N16780 G02 X54.1 Y104.241 I5.
N16785 X58.752 Y103.475 I-6.601 J-54.602
N16790 X62.672 Y99.336 I-1.023 J-4.894
N16795 G03 X82.953 Y87.627 I14.828 J2.264
N16800 G02 X88.498 Y86.302 I1.818 J-4.658
N16805 X91.487 Y82.656 I-40.998 J-36.663
N16810 X89.988 Y75.324 I-3.999 J-3.002
N16815 G01 X64.008 Y60.324
N16820 G03 X63.642 Y58.958 I0.5 J-0.866
N16825 X65.008 Y58.592 I0.866 J0.5
N16830 G01 X90.988 Y73.592
N16835 G02 X98.087 Y71.224 I2.5 J-4.33
N16840 X99.75 Y66.812 I-50.587 J-21.585
N16845 X98.125 Y61.348 I-4.75 J-1.561
N16850 G03 Y37.929 I9.375 J-11.709
N16855 G02 X99.75 Y32.465 I-3.125 J-3.903
N16860 X98.087 Y28.053 I-52.25 J17.173
N16865 X90.988 Y25.685 I-4.599 J1.962
N16870 G01 X65.008 Y40.685
N16875 G03 X64.008 Y38.953 I-0.5 J-0.866
N16880 G01 X89.988 Y23.953
N16885 G02 X91.487 Y16.622 I-2.5 J-4.33
N16890 X88.498 Y12.976 I-43.987 J33.017
N16895 X82.953 Y11.651 I-3.727 J3.333
N16900 G03 X62.672 Y-0.059 I-5.453 J-13.974
N16905 G02 X58.752 Y-4.198 I-4.943 J0.755
N16910 X55.658 Y-4.753 I-11.252 J53.837
N16915 G03 X54.817 Y-5.89 I0.148 J-0.989
N16920 G01 X54.966 Y-6.879
N16925 X54.983 Y-6.998 Z-16.993
N16930 X55.001 Y-7.116 Z-16.971
N16935 X55.018 Y-7.23 Z-16.935
N16940 X55.034 Y-7.339 Z-16.885
N16945 X55.05 Y-7.441 Z-16.823
N16950 X55.064 Y-7.535 Z-16.749
N16955 X55.077 Y-7.619 Z-16.663
N16960 X55.088 Y-7.693 Z-16.568
N16965 X55.097 Y-7.755 Z-16.465
N16970 X55.104 Y-7.804 Z-16.355
N16975 X55.11 Y-7.839 Z-16.239
N16980 X55.113 Y-7.861 Z-16.121
N16985 X55.114 Y-7.868 Z-16.
N16990 G00 Z5.
N16995 X57.092 Y-7.571
N17000 Z-3.
N17005 G01 Z-16. F400.
N17010 Z-17.
N17015 X57.091 Y-7.564 Z-17.121
N17020 X57.087 Y-7.543 Z-17.239
N17025 X57.082 Y-7.507 Z-17.355
N17030 X57.075 Y-7.458 Z-17.465
N17035 X57.065 Y-7.396 Z-17.568
N17040 X57.054 Y-7.323 Z-17.663
N17045 X57.042 Y-7.238 Z-17.749
N17050 X57.028 Y-7.144 Z-17.823
N17055 X57.012 Y-7.042 Z-17.885
N17060 X56.996 Y-6.933 Z-17.935
N17065 X56.979 Y-6.819 Z-17.971
N17070 X56.961 Y-6.702 Z-17.993
N17075 X56.943 Y-6.582 Z-18.
N17080 X56.795 Y-5.594
N17085 G03 X55.658 Y-4.753 I-0.989 J-0.148
N17090 G02 X54.1 Y-4.964 I-8.158 J54.392 F800.
N17095 X48.5 Y0. I-0.6 J4.964
N17100 G01 Y30.
N17105 G03 X46.5 I-1.
N17110 G01 Y0.
N17115 G02 X40.9 Y-4.964 I-5.
N17120 X36.248 Y-4.198 I6.6 J54.603
N17125 X32.328 Y-0.059 I1.023 J4.894
N17130 G03 X12.047 Y11.651 I-14.828 J-2.264
N17135 G02 X6.502 Y12.976 I-1.818 J4.658
N17140 X3.513 Y16.622 I40.998 J36.663
N17145 X5.012 Y23.953 I3.999 J3.002
N17150 G01 X30.992 Y38.953
N17155 G03 X29.992 Y40.685 I-0.5 J0.866
N17160 G01 X4.012 Y25.685
N17165 G02 X-3.087 Y28.053 I-2.5 J4.33
N17170 X-4.75 Y32.465 I50.587 J21.586
N17175 X-3.125 Y37.929 I4.75 J1.561
N17180 G03 Y61.348 I-9.375 J11.709
N17185 G02 X-4.75 Y66.812 I3.125 J3.903
N17190 X-3.087 Y71.224 I52.25 J-17.174
N17195 X4.012 Y73.592 I4.599 J-1.962
N17200 G01 X29.992 Y58.592
N17205 G03 X31.358 Y58.958 I0.5 J0.866
N17210 X30.992 Y60.324 I-0.866 J0.5
N17215 G01 X5.012 Y75.324
N17220 G02 X3.513 Y82.656 I2.5 J4.33
N17225 X6.502 Y86.302 I43.987 J-33.017
N17230 X12.047 Y87.627 I3.727 J-3.333
N17235 G03 X32.328 Y99.336 I5.453 J13.973
N17240 G02 X36.248 Y103.475 I4.943 J-0.755
N17245 X40.9 Y104.241 I11.253 J-53.837
N17250 X46.5 Y99.277 I0.6 J-4.964
N17255 G01 Y69.277
N17260 G03 X48.5 I1.
N17265 G01 Y99.277
N17270 G02 X54.1 Y104.241 I5.
N17275 X58.752 Y103.475 I-6.601 J-54.602
N17280 X62.672 Y99.336 I-1.023 J-4.894
N17285 G03 X82.953 Y87.627 I14.828 J2.264
N17290 G02 X88.498 Y86.302 I1.818 J-4.658
N17295 X91.487 Y82.656 I-40.998 J-36.663
N17300 X89.988 Y75.324 I-3.999 J-3.002
N17305 G01 X64.008 Y60.324
N17310 G03 X63.642 Y58.958 I0.5 J-0.866
N17315 X65.008 Y58.592 I0.866 J0.5
N17320 G01 X90.988 Y73.592
N17325 G02 X98.087 Y71.224 I2.5 J-4.33
N17330 X99.75 Y66.812 I-50.587 J-21.585
N17335 X98.125 Y61.348 I-4.75 J-1.561
N17340 G03 Y37.929 I9.375 J-11.709
N17345 G02 X99.75 Y32.465 I-3.125 J-3.903
N17350 X98.087 Y28.053 I-52.25 J17.173
N17355 X90.988 Y25.685 I-4.599 J1.962
N17360 G01 X65.008 Y40.685
N17365 G03 X64.008 Y38.953 I-0.5 J-0.866
N17370 G01 X89.988 Y23.953
N17375 G02 X91.487 Y16.622 I-2.5 J-4.33
N17380 X88.498 Y12.976 I-43.987 J33.017
N17385 X82.953 Y11.651 I-3.727 J3.333
N17390 G03 X62.672 Y-0.059 I-5.453 J-13.974
N17395 G02 X58.752 Y-4.198 I-4.943 J0.755
N17400 X55.658 Y-4.753 I-11.252 J53.837
N17405 G03 X54.817 Y-5.89 I0.148 J-0.989
N17410 G01 X54.966 Y-6.879
N17415 X54.983 Y-6.998 Z-17.993
N17420 X55.001 Y-7.116 Z-17.971
N17425 X55.018 Y-7.23 Z-17.935
N17430 X55.034 Y-7.339 Z-17.885
N17435 X55.05 Y-7.441 Z-17.823
N17440 X55.064 Y-7.535 Z-17.749
N17445 X55.077 Y-7.619 Z-17.663
N17450 X55.088 Y-7.693 Z-17.568
N17455 X55.097 Y-7.755 Z-17.465
N17460 X55.104 Y-7.804 Z-17.355
N17465 X55.11 Y-7.839 Z-17.239
N17470 X55.113 Y-7.861 Z-17.121
N17475 X55.114 Y-7.868 Z-17.
N17480 G00 Z15.

N17485 G28 G91 Z0.
N17490 G90
N17495 G49
N17500 G28 G91 X0. Y0.
N17505 G90
N17510 M30
%
